X:1
T:Symphony No. 4 in A major, Op. 90
T:Symphony No. 4 in A-Major, Op. 90
T:The Italian - 1st Movement 
T:Felix Mendelssohn 
T:Arr. for 2 pianos by Julius Rietz 
C:Felix Mendelssohn
Z:Arr. for 2 pianos by Julius Rietz
%%score { ( 1 3 ) | ( 2 4 ) } { ( 5 7 ) | ( 6 8 ) }
L:1/8
Q:1/4=220
M:6/8
K:A
V:1 treble nm="Piano I" snm="Pno. I"
V:3 treble 
V:2 treble 
V:4 treble 
V:5 bass nm="Piano II" snm="Pno. II"
V:7 bass 
V:6 bass 
V:8 bass 
V:1
"^Allegro vivace"!f! !arpeggio![xeac'e']2 z z2 z | z2 z z2 a | c'3 a z a |: c'3 a z a | e'3 e'd'b | %5
 g2 z z ed | c2 e a2 c' | f2 a d'2 f' | e'3 e'd'c' | c'2 z z2 a | d'3 c' z c' | b3 z2 b | %12
 d'3 c' z c' | b3 z2 b | f'3 z z2 | ^d'3 z2 B | [B-=d-a]3!f!"_cresc." [Bdg] z [Bdg] | %17
 [B-df]3 [Bde] z!ff! e |!p! efc' gba | ^egf cdB | e3- ecA | e3- ecA | A2 z z2!f! a | !>!c'3 a z a | %24
 [cc']6- | [cc']3 z2 z | z2 z z2!f! a | c'3 a z a | [cc']6- | [cc']3 z2 z | z2 z z2!f! c | %31
 e3 c z c |"_dim." !>!e6 | e6- | e.E.F .G.B.c | .d.e.f .g.b.e | c'3 a z z |!p! e6- | e.F.G .A.B.c | %39
 .d.e.f .g.a.c | e3 ^d z z | z2 z a3 |!p! [^dfab]3 z2 z | [^dfab]3 z2 z | [^dfab]3 z2 z | %45
 [^dfab]3 z2 z |!mf! [egbd'e']3 GAB | cd"_cresc."e fga | b z G ABc | def gab |!ff! c'3 a z a | %51
 c'3 a z a | [ee']3-!ff! [ee']d'b | g2 z z ed | c2 e a2 c' | f2 a d'2 f' | e'3- e'd'c' | %57
 c'2 z z ce | a2!ff! f e2 ^d | f2 e =d2 B | A3 B3 | c3 z c'e' | a'!ff!g'b' a'f'^d' | f'e'c' =d'bf | %64
 Paga bge | .[ac'].[egb].[eac'] .[egb].[eac'].[egb] | [eac'] z z z2 z | %67
 z .[egb].[eac'] .[egb].[eac'].[egb] | [eac'] z z z2 z | z .[f^ac'].[fbd'] .[fac'].[fbd'].[fac'] | %70
 [fbd'] z z z2 z | z .[ac'e'].[ad'f'] .[ac'e'].[ad'f'].[ac'e'] | [ad'f']!f! fg fgf | b6 | b6 | %75
 ([eg]!f![^df]).[df] ([eg]!f![df]).[df] | ([eg]!f![^df]).[df] ([eg][df]).[df] | b6 | b6 | %79
!f! ([fa][eg]).[eg] ([fa]!f![eg]).[eg] | ([fa]!f![eg]).[eg] ([fa]!f![eg]).[eg] | %81
 [c'e']3!f! [ec'] z [ec'] | [c'e']3!f! [ec'] z [ec'] |!ff! [c'e']3- [c'e']c'^a | [ff']3 [ff']e'c' | %85
 b2 z z2!ff! B | ^d3 B z B | [^df]3 B z B | [^df]3 B z B |!f! .b!pp!.^a.b .[gc'].=a.g | %90
 .f.^e.f .[=ea].f.e | .^d.c.d .f.d.A | .G.F.G .B.G.e | .B.^A.B .[Gc].=A.G | .F.^E.F .[=EA].F.E | %95
 z2 z!p! [ab]3 | [=gb]3 [ge']3 | [f^d']2 z =G3 | F z z z2 z | z2 z =G3 | F z z z2 z | z6 | %102
 z2 z B3 | c3 ^d3 | e3 f3 | g3 ^Bc^d | eef ga^a | b z!pp! [gb] [eg] z e | ^d z B A z F | %109
!p! G3 B z [ce] | [ce]3 [Ac]2 z |!<(! B3 B z!<)!!mp! B |!>(! B6!>)! | G3 B z e | ^e6 | c2 z ^A2 z | %116
 [^B-f]6 | [B^d]2 z [G^B]2 z | [Gc]2 z !>!b3- | b6 | [fb]3 e z ^d | c2 z f2 z | f3 ^B z z | %123
!p! [eg]3 [gb] z [c'e'] | [c'e']3 [ac'] z z | b3 b2 b | b3- b z z | [eg]3 [gb] z [^ae'] | %128
 [f-^a-e']6 | [fac']2 z [f^a] z2 | [fbf']6 |"_cresc." B3 =a z g | g3 f z e | e3 ^d z c | B6 | %135
!mf! z2 z"_cresc." c' z b | b3 z z2 | g3 z z2 | ^d6 |!f! [eg]3 [gb] z [c'e'] | [c'e']3 [ac']2 z | %141
!p! [c^e]3 [eg] z [ac'] | [ac']3 [fa]3 | g3 f3 | e3 B2 e | [^df]3 B2 [db] | [eg]3 z2 z | %147
!f! G3 B2 [ce] | [ce]3 [Ac]3 |!p! ^E3 G2 c | c3 A3 | G3 F3 | z2 z A3 | G3 F3 | z2 z!pp! c3 | %155
 B3 A3 | G3 z z2 | z2 z z2!p! e | g6 | e2 z z2 e | g6- | g2 z z2 e |"_cresc." g6 | e2 z z2 e | %164
 g3 g3- | g3- g z!f! e | g3 e z e | g3 e z e | b3 baf | ^d2 z z2!ff! B | b3 e z e | b3 e z e | %172
 e'3- e'c'a | f3- fac' | [^df]2 z [^eg]2 z | [fa]2 z ^d2 z | b3 e z e | b3 e z e | e'3- e'c'a | %179
 f3- fac' | [^df]2 z [^eg]2 z | [fa]2 z ^d2 z | e2 z z2 e | g3 e z!ff! e | b3!ff! e z e | %185
 b3!ff! e z e ||1 !arpeggio![egbe']2 z z2!p! B | e3 ^d2 c | c3 B2 B | a2 f e2 ^d | ^d3 e2 B | e6 | %192
 e2 z z2 z | a2 f e2 ^d | b6 | b6 | b6 | b6 | b6 | e'2 c' b2 ^a | ^a3 b2 c' | =d'2 b =a2 g | %202
 g3 a2 b |"_cresc." c'2 a g2 f | a2 f e2 d | f2 d c2 B |!f! dEF .G.A.B | .c.d.e .f.g.a | %208
 c'3!f! a z a :|2 [gbe']!p!^d'e' .=f'.=d'.=c' | .b.^a.b .d'.b.=a | .g.f.g .b.g.e || e3 a3 | %213
 [eg].^d.e .=f.d.=c | .B.^A.B .d.B.=A | G2 z!p! [Be]3 | [=ce]3 [ea]3 | [da]3- [da]2 z | %218
 z2 z [^cea]3 | [d=fa]6 | z2 z [cea]3 | [=fa]._b.a .=g.f.e | .d.=f.e .d.=c._B | .A.d.=c ._B.A.=G | %224
!p! A2 z{/_B} .A.^G.A | =F z z d2 z | ^c2 z .c.d.e | A6 | e2 z{/=f} .e.^d.e | =c z z a2 z | %230
 ^g2 z .g.a.b | e6- | e.=g.=f .e.f.e | da=g =fed | ^g6 | [ea]ed e2 z | ^d6- | d.e.f .=g.^d.e | %238
 ^d6- | d.e.f .=g.^d.e | B6- | B.=c.B .c.A.^F | =G2 z B2 z | =d3- d.e.d | ^c6- | c.d.c .d.B.^G | %246
 A2 z c2!pp! z | e3- e.f.e | [^db]2 z{/=c'} .b.^a.b | =c3{/c} .B.^A.B | =a2 z{/b} .a.^g.a | %251
 B3{/B} .A.G.A | z2 z{/a} =gfg | B2 z{/a} [e=g]fg | B2 z"_cresc."{/a} =gfg | ^c2 z{/a} =gfg | %256
 f2 z{/=g} f^ef | d2 z b2 z | ^a2 z abc' | f6 |!mf! f2 z{/=g} f^ef |"_cresc." d2 z b2 z | %262
 ^a2 z abc' | f6 |!f! [df]3{/=g} f^ef | d2 z b2 z | ^a2 z"_cresc." abc' | f3 f2 b | %268
 !>![f^d']3 b z b | !>![^d^d']3 [fb] z b | [f^d'f']6 | fe^d [fa]gf |!f! b2 z b^ab | g2 z !>!e'3 | %274
 e'ba g^^fg | bgf e^de | !>![cc']3 a z a | !>![cc']3 a z a | [c'e']6 | edc [e=g]fe | aac' d'f=g | %281
 a2 z a^ga | f2 z d'3- | d'2 z z2!ff! =c' | [=ge']3 =c' z c' | [=ge']3 =c' z c' | [bd'=f'=g']6- | %287
 [bd'f'g']2 z z2 e | !>!=g3 e z e | !>!^g3 e z e | a3- a=ge | c2 z z2 f | !>!a3 f z f | %293
 !>!^a3 f z f | b3- baf | ^d2 z z2 z |!ff! [e=gb]2 z{/=c'} [gb][f^a][gb] | [e=g]2 z [gbe']2 z | %298
 !>![f^d'-]3 d'e'f' | [^dfb]6 | [e=gb]2 z{/=c'} [gb][f^a][gb] | [a=c']2 z [e=gb]2 z | %302
 [fa]2 z{/b} [fa][e=g][fa] | [^dfb]6 | [e=gb]2 z{/=c'} [gb][f^a][gb] | [e=g]2 z [gbe']2 z | %306
 [f^d'-]3 d'e'f' | [^dfb]6 | b2 z{/=c'} b^ab | f2 z b2 z | ^c'6 | [^egc']6 | %312
!ff! [ac']2 z{/d'} [ac'][g^b][ac'] | [fa]2 z [fc'f']2 z | [g^e']2 z [ge']f'g' | [gbc']6 | %316
!ff! [fc']2 z{/d'} [fc'][f^b][fc'] | [fa]2 z [fc']2 c' | [^eg^e']3!ff! c' z c' | %319
 [^eg^e']3!ff! c'2 z | [fc']2 z{/d'} [fc'][fb][fc'] | [fa]2 z [fc']2 c' | [^eg^e']3!ff! c' z c' | %323
 [^eg^e']3!ff! c'2 z | [fc']2 z{/d'} [fc']^bc' | f2 z!ff! [fc']2 c' | [gc'^e']3 [^egc'] z [eg] | %327
 [^egc']3 [ceg] z [ce] |"_dim." [c^eg]3 [Gce] z [Gc] | [c^e]3 [Gc] z [^EG] | [Gc]3 [^EG] z2 | %331
 z2 z z2!p! [C^E] | [^EG]3 [CE] z z | z2 z z2 [^EG] | [Gc]3 [^EG] z z | z2 z z2 [Gc] | [B^e]6- | %337
 [Be]2 z z2 [A,C] | [CF]3 [A,C] z z | z2 z z2 [CF] | [FA]3 [CF] z z | z2 z z2 [FA] | %342
 [Ac]3 [FA] z z | z2 z z2 f | [fa]6- | a6 | a6- | a6 | a6- | a6 | a6- | a3 a2 f | a6- | a3 =g3 | %354
 f6 | z2 z z2!p! d | f6 | d3 z2!p! d |"_cresc." !>!f6- | f3 f2!mf! f- | [fa]6 | f3 z2 f | %362
 !>![fa]6- | [fa]3- [fa]2!f! [fa] | !>![fa]6- | [fa]3- [fa]2 [fa] | %366
!<(! [fac'][fac'][fac'] [fac'][fac'][fac'] | [fac'][fac'][fac'] [fac'][fac'][fac']!<)! | %368
!ff! c'3 a z a | c'3!ff! a z a | e'3- e'!ff!d'b | g2 z z ed | c2 e a2 c' | f2 a d'2 f' | %374
 e'3- e'!ff!d'c' | c'2 z z2 a | !>![ad']3 [ac'] z c' | b3 z2 b | !>![ad']3 [ac'] z c' | b3 z2 b | %380
 [Bda]3!ff! [Bdg] z [Bdg] | [Bdf]3 [Bde] z e |!p! eac' bga | ^egf cdB | e3- ecA | e3- ecA | A6 | %387
 a6 | a3 g z g | f3 e z e |!p! eac' bga | ^egf cdB | AGB egf | ^dfe ^BcG | =BGA cfa | g^ef c=ed | %396
 c^AB dgf | e^AB dgf | e^AB dgf | e^AB dgf | e^de gba | g^^fg bd'c' | bag fe^d | f!p!.e.f .g.a.b | %404
 c'ae cea | afd fdf | egb e' z z | eBG Ace | c'ae cea | bf^d[I:staff +1] B[I:staff -1]df | %410
 bf^d[I:staff +1] B[I:staff -1]df | bge ^deg | b z z z fg | ab^b c'ae | ^efg afc | %415
[I:staff +1] B[I:staff -1]ba gfe | af^d Bcd | e z z z2 z | c3 e z [fa] | !>![fa]3 [df]2 z | %420
 B3 c z d | !>!d3 c2 z | c3"_cresc." e z a | !>!a6 | d3 f z [eb] | b6 | e3!mf! [bd'] z [ac'] | %427
 [ac']3 [gb] z"_cresc." [fa] | [fa]3 [eg] z f | e3 e3 | e3 [d'f'] z [gc'e'] | %431
 [g-c'e']3 [gbd'] z [eac'] | [e-ac']3 [egb] z [fa] | [eg]6 |!f! [e-ac']3 [eae'] z [af'a'] | %435
 [af'a']3 [ad'f']2 z | ^A3 c z f | !>!f3"_dim." d3 | c3 B3 |!p! A3 E2 e | c3 E2 e | c3 z z2 | %442
!f! z2 z z2 A | A3 F3 |!p! ^A3 c2 f | f3 d3 | c3 B3 | z2 z"_dim." d3 | c3!pp! B3 | z2 z!pp! f3 | %450
 e3 d3 | c3 B3 | ^A3 B3 | d3 z z2 | z6 |!p! e z z{/=f} .e.^d.e | =c z z [ea] z z | %457
 [eg] z z .[eg].[ea].[eb] | e z z4 | e z z{/=f} .e.^d.e | =f z z e z z | %461
 [Bd] z z{/e} [Bd][A=c][Bd] | e3 e z z | [=c'e'] z z{/=f'} [c'e'][b^d'][c'e'] | %464
 [a=c'] z z [c'e'a'] z z | [be'g'] z z [be'g']a'b' | [bd'e'] z z z2 z | %467
 [=c'e'] z z{/=f'} [c'e'][b^d'][c'e'] | [=d'=f'] z z [=c'e'] z2 | [bd'] z z{/e'} [bd'][a=c'][bd'] | %470
 [=c'e']3- [c'e'] z z | [a=c'] z z{/d'} [ac'][^gb][ac'] | [=fa] z z [_bd'] z z | %473
 [a=c'] z z{/d'} [ac'][^gb][ac'] | [=fa] z z z d^d | e z z"_cresc."{/^f} e^de | =c z z [ea] z z | %477
 [eg] z z [eg][ea][eb] |!mf! e6 | [=c'e'] z z"_cresc."{/=f'} [c'e'][b^d'][c'e'] | %480
 [a=c'] z z [c'e'a'] z z | [be'g'] z z [be'g']a'b' | [bd'e'] z z z2!f! a | !>!^c'3 a z a | %484
 !>!^c'3 a z a | [gbe']3 e'd'b | g2 z z2 b |!ff! [=ge']3 [ga] z [ga] | [=ge']3 [ga] z a | %489
 a'3- a'f'd' | b3- bd'f' | a'3- a'=g'e' | c'3- c'e'a' | a' z z c z z | [Bd] z z [ce] z z | %495
 [df] z z c'aa | [gb]aa [ac']aa |!ff! [ad'f']3 [ae'] z [ae'] | [ad'f']3 [ae'] z [ae'] | %499
 [ad'f']2 z!ff!{/b} aga | f2 z [fd']z[fd'] | [d'f']3 [fd'] z [fd'] | [d'f']3 [fd'] z [fd'] | %503
 [bd'f']2 z!ff! fef | d2 z [fb]2 z | [bd']2 z z2 z | z2 z z2 [bd'e'] | %507
 [b-d'-e']3 [bd'f'] z [bd'e'] | [b-d'-e']3 [bd'f'] z [bd'e'] | [bd'e']!p!.b.c' .d'.g.a | %510
 .b.d.e .f.B.c | .d.G.A .B.D.E | F z z E3 | E3 G3 | A3 B3 | z2 z !>!f3 | e3 z2!p! e | e3 g3 | %518
 a3 b3 | g3 [ff']3 | [ee']3 [ee']2 e | !>!e'6 | ^d'2 z b3 | !>!=d'6 | c'2 z [ff']3 | ([ee']6 | %526
 g).g.a .b.c'.d' | !>![ec'e']6 | [^db^d']2 z [Bb]3 | [=db=d']6 | [cac']2 z [ad'f']3 | %531
 [ac'e']"_cresc."e'd' c'ba | g z z z2 z |!mf! z e'd' c'ba | gfe z2 z | z"_cresc." f'e' d'c'b | %536
 ^a=gf z2 z | z d'c' bag | fed z2 z | z e'd' c'ba | gfe z2 z | z!8va(! c''b' a'g'f' | %542
 e'd'c' bag!8va)! |!f! (f^d).d"_cresc." (af).f | (^d'a).a (f'd').d' | %545
!ff!!8va(! [^d'a']3 [d'f'] z [d'f'] | [^d'a']3!ff! [d'f'] z [d'f'] | [^d'a']2!ff! f' [d'a']2 f' | %548
 [^d'a']2!ff! f' [d'a']2!ff! f'!8va)! | [=deb]3 !>![bd']3 | !>![ac']3 !>![ad'f']3 | %551
 [c'e']ae' c'ae | d'bg edB | A2 z Ac!p!e | [fa]3 [eg] z [df] | [df]3 [ce]2 e | e'6 | g3 ace | a6 | %559
 [df]3 [ce]2 e |"_cresc." e'6 | g3 a2 e | e'6 | g3 a2 e | [d'e']2 b a2 g |!f! d'2 b a2 g | %566
"_cresc." d'2 b a2 g |!ff! [ed']2"_cresc." z z2 z | fga bc'd' |!ff! [ac'e']2 z{/f'} e'^d'e' | %570
 c'2 z{/d'} c'^bc' | a2 z{/d'} c'^bc' | a2 z{/b} aga | e2 z{/f} e^de | c^Bc z2 z | z6 | %576
!ff! z2 z z ea | c'3 [bd'e'] z!ff! e' | c'3 [bd'e'] z!ff! e' | [ac']2 z [egb]2 z | %580
 [eac']2 z [egb]2 z | [eac']2 z [cea]2 z | [cea]2 z [cea]2 z | [eac']2 z z2 z | [eac'e']2 z z2 z | %585
 A2 z !fermata!z2 z |] %586
V:2
!ped! !arpeggio![Ac]2!ped-up! z z2 z | z2 z z2 A |!ped! c3 A!ped-up! z A |:!ped! c3 A!ped-up! z A | %4
!ped! e3 edB!ped-up! | G2 z z2 z |!ped! z2 z A2!ped-up! c |!ped! F2 A d2!ped-up! f | %8
!ped! e3 edc!ped-up! | c2 z z2 A | d3 c z c | B3 z2 B | d3 c z c | B3 z2 B | f3 z z2 | ^d3 z2 z | %16
 A3 G z G | F3 E z E | EAc GBA | ^EGF F z z |!ped! E!p!EE!ped-up! E z z | %21
!ped! E!p!EE!ped-up! E z z |!ped! EEE!ped-up! E z A | !>!c3 A z A | z2 z!p! C2 z | %25
 [CE]2 z [CE]2 z | [CF]2 z z2 A | c3 A z A | z2 z!p! [FA]2 z | [FA]2 z [FA]2 z | [EG]2 z z2 C | %31
 E3 c z C |!mf!!ped! !/!E6!ped-up! |!mp!!ped! !/![B,DE]6!ped-up! |!p! [B,DE] z z z2 E | %35
 !>!F3 E z E |!pp! !/!E6 | !/![CE]6 | [CE] z z z2 E | !>!F3 E z E | A3 A3- | A3 A3 | %42
 z!ped! B,C ^DEF!ped-up! | z!ped! B,C ^DEF!ped-up! | z!ped! B,C ^DEF!ped-up! | %45
 z!ped! B,C ^DEF!ped-up! |!ped! z EF EFG!ped-up! |!ped! ABc def!ped-up! | g z!ped! E FGA!ped-up! | %49
!ped! Bcd efg!ped-up! | a2 z z2 [Ac] | [Ac]3- [Ac] z [Ac] | [Bd]3- [Bd]dB | G2 z z2 z | z2 E A2 c | %55
 F2 A d2 f | e3- edc | c2 z z2 z | z6 | z6 | z2 z G3 | A3 z ce | agb af^d | fec =dBG | A3 [GB]3 | %65
 .[Ac].[EB].[Ac] .[EB].[Ac].[EB] | [Ac] z z z2 z | z .[EB].[Ac] .[EB].[Ac].[EB] | [Ac] z z z2 z | %69
 z .[Fc].[Bd] .[Fc].[Bd].[Fc] | [Bd] z z z2 z | z .[Ae].[df] .[Ae].[df].[Ae] | %72
 [df] [B^d]e [Bd]e[Bd] | e[B^d]e [Bd]e[Bd] | e[B^d]e [Bd]e[Bd] | BBB BBB | BBB BBB | BBB BBB | %78
 BBB BBB | (BB).B (BB).B | (BB).B (BB).B | c6 | c6 | c3 [F^Ace]3 | [F^Ace]3 cec | B2 z z2 z | z6 | %87
 z6 |!f! z6 | z6 | z6 | z2 z .A.F.^D | E2 z4 | z6 | z6 | .^D.C.D [B,DF]3 | [B,E=G]3 [Be]3 | %97
 [B^d]2 z E3 | ^D z z z2 z | z2 z E3 | ^D z z z2 z | z6 | z2 z ^G3 | E3 ^B3 | c3 ^d3 | eAB z2 z | %106
 z6 | z6 | z2 z z z ^D | E3 G z z | z6 | ^D3 E z F | E3 E2 z | E3 G z [F^A] | [F^A]6- | %115
 [FA]2 z [CF]2 z | F6 | ^D2 z D2 z | C2 z !>!g3 | g3 f z e | ^d3 c z B | ^A2 z A2 z | B2 z z2 z | %123
 [EG]3 [GB] z [ce] | [ce]3 [Ac] z z | B3 B2 B | B3- B z z | [EG]3 [GB] z [ce] | [F-c-e]6 | %129
 [Fc]2 z [Fc] z2 | [FB]6 |!ped! z6 | z6 | z6 | z6 | B3!ped-up!!ped! a z g | g3 z z2 | e3 z z2 | %138
 B6!ped-up! | G3 [GB] z [ce] | [ce]3 [Ac]2 z | G6 | A3 ^D3 | E3 F3 | G6 | A3 A2 F | [EG]3 z2 z | %147
 E3 G z2 | z6 | ^E6 | A3 z2 z | z6 | z6 | z6 | z6 | z6 | z2 z F3 | A3 F3 | z6 | z6 | z6 | z6 | z6 | %163
 z6 | z2 z G3- | G3- G z2 | z6 | z6 | B6- | B2 z4 | B3 E z E | B3 E z E | e3- ecA | F3- FAc | %174
 [^DFB]2 z [^EGB]2 z | [FA]2 z [FB]2 z | B3 E z E | B3 E z E | e3- ecA | F3- FAc | %180
 [^DFB]2 z [^EGB]2 z | [FA]2 z [FB]2 z |!f! !/![EGB]6 | !/![EGB]6 | !/![EGB]6 | !/![EGB]6 ||1 %186
 [EGB]3 z2 G | c3 B2 A | A3 G3 | [AB]6 | [GB]3- [GB]2 G | c3 B2 A | A3 G3 | [AB]6 | B3 B2 B | %195
 [FA]6 | [EG]6 | B6 | [EGB]6 | e2 c B2 ^A | ^A3 B2 c | =d2 B =A2 G | G3 A2 B | c2 A G2 F | %204
 A2 F E2 D | F2 D C2 B, | [B,D]2 z z2 z | .C.D.E .F.G.A | [EAc]2 z z2 A :|2 [GBe]2 z4 | z6 | z6 || %212
 .=c.B.c .e.c.A | z6 | z6 | z6 | z6 | [=FA]3- [FA]2 z | z2 z [^CEA]3 | [D=FA]6 | z2 z [CEA]3 | %221
 [D=FA]3 z2 z | z6 | z6 | .=F.E.=G .F.E.F | .D.=F.E .D.E.F | .E.=G.=F .E.F.G | .=F.E.=G .F.E.D | %228
 .^G.E.^F .G.F.G | .A.=c.B .A.B.c | .B.=f.e .d.=c.B | .=c.B.d .c.A.B | .^c.e.d .c.d.c | %233
 A z z d z z | z .B.=c .d.c.B | A2 z [A=c]BA | z ^F=G .A.G.F | [E=G]2 z B2 z | z ^F=G .A.G.F | %239
 [E=G]2 z z2 z | z6 | z6 | z6 | z6 | z6 | z6 | z6 | E[FA][^GB] [A=c]3 | A z z z2 z | z6 | %250
 =C3 z z2 | z6 | B,6 | z6 | z EF =GAB | B2 z z2 z | B2 z F^G^A | B2 z Bcd | e2 z ef=g | c3- cde | %260
 ded cdc | Bdc B=GF | E z z edc | z ed cB^A | B3 F^G^A | B2 z Bcd | e2 z ef=g | c3- cde | %268
 ^ddc BFE | ^DBG F^dc | B!f!^AB ^dcB | B2 z z2 z | [Be]2 z g^^fg | [Be]2 z{/c} B^AB | G2 z !>!e3- | %275
 eBA G^^FG | A2 z AED | C2 z ecB | A!f!GA cBA | A2 z z2 z | z6 | z de fAc | %282
 d[A=cd][Acd] [Acd]!f![Acd][Acd] | !/![A=cd]6 | [=G-=ce-]3 [Gce] z [Gce] | [=G-=ce-]3 [Gce] z c | %286
 [Bd=g]!ff!=fd B z z | z6 | !/![=G=c]6 | !/![E^GB]6 | AEA ^cA=G | A2 z A2 z | !/![FAd]6 | %293
 !/![F^Ac]6 | B=AF ^D z z | z6 | [E=GB]2 z [GB][F^A][GB] | =G2 z [GBe]2 z | %298
 !>![FA=c^d]3- [FAcd]=GA | [^DFAB]6 | [E=GB]2 z [GB][GB][GB] | [A=c]2 z [=GB]2 z | %302
 [FA=c]2 z [FAc][FAc][FAc] | [^DFAB]6 | [E=GB]2 z [GB][F^A][GB] | =G2 z [GBe]2 z | %306
 [FA=c^d]3- [FAcd]=GA | [^DFAB]6 | =GEF GFE | B2 z B^AB | ^G2 z GFG | [^EGc]6 | %312
 [FAc]2 z [FAc][FAc][FAc] | [FAc]2 z [Fc]2 z | [^EGBc]2 z [EGBc][EGBc][EGBc] |!f! !/![^EGBc]6 | %316
 [FAc]2 z [FAc][FAc][FAc] | [FAc]2 z [FAc]2 z | [^EGc]3- [EGc] z [EGc] | [^EGc]6 | %320
 [FAc]2 z [FAc][FAc][FAc] | [FAc]2 z [FAc]2 z | [^EGc]3- [EGc] z [EGc] | [^EGc]6 | %324
 [F^Ac]2 z [FAc][FAc][FAc] | [F^Ac]2 z [F=Ac]3 |!ped! [^EGc]6 | [C^EG]6 | [C^E]3 [CE] z E | %329
 G3 ^E z C | ^E3 C!ped-up! z2 | z2 z z2 G, | C3 G, z z | z2 z z2 C | ^E3 C z z | z2 z z2 ^E | G6- | %337
 G2 z z2[K:bass] F, | A,3 F, z z | z2 z z2 A, | C3 A, z z | z2 z z2[K:treble] C | F3 C z z | %343
 z2 z z2 [Ac] | c6- | c2 z z2 C | E3 A, z z | z2 z z2 E | =G3 E z z | z2 z z2 =G | c3 =G z z | %351
 z2 z z2 [=Gc] | [Ac]6- | [Ac]3 z2 z | z6 | z6 | z6 | z6 | z6 | z6 | z6 | z6 | z6 | z2 z z2 A | %364
 !>!c6 | A2 z z2 A |!ped! c3 c3!ped-up! |!ped! d3 ^d3!ped-up! | [ce]3 [Ae] z A | c3 A z A | %370
 e3- edB | G2 z z2 z | z2 z A2 c | F2 A d2 f | e3- edc | c2 z z2 A | !>![Ad]3 [Ac] z c | B3 z2 B | %378
 !>![Ad]3 [Ac] z c | B3 z2 B | A3 G z G | F3 E z E | EAc BGA | ^EGF F z2 | E!p!EE E z z | %385
 EEE E z z | z6 | [AB][AB]!p![AB] [AB] z z | [Bd][Bd][Bd] [Bd] z2 | z2 z [E-Bd]3 | [EAc] z z z2 z | %391
 z6 | z6 | z6 | z6 | z6 | z6 | z6 | z6 | z6 | z6 | z6 | z6 | z6 |!ped! z6!ped-up!!ped!!ped-up! | %405
!ped! z6!ped-up!!ped!!ped-up! |!ped! z2 z!ped-up!!ped! ecG!ped-up! | %407
!ped! E z z!ped-up!!ped! z2 z!ped-up! |!ped! z6!ped-up!!ped!!ped-up! | %409
!ped! x6!ped-up!!ped!!ped-up! |!ped! x6!ped-up!!ped!!ped-up! |!ped! z6!ped-up!!ped!!ped-up! | %412
!ped! Bc^d!ped-up!!ped! e z2!ped-up! |!ped! z6!ped-up!!ped!!ped-up! | %414
!ped! z6!ped-up!!ped!!ped-up! |!ped! x6!ped-up!!ped!!ped-up! |!ped! z6!ped-up!!ped!!ped-up! | %417
!ped! z GB!ped-up!!ped! =dBG!ped-up! | A3 c z2 | z6 | G3 A z B | !>!B3 A2 z | A3 c z d | !>!d6 | %424
 B3 d z d | d6 | E3 [Bd] z [Ac] | [Ac]3 [GB] z [FA] | [FA]3 [EG] z F | E3 E3 | E3 [df] z [Gce] | %431
 [G-ce]3 [GBd] z [EAc] | [E-Ac]3 [EGB] z [FA] | [EG]6 | [E-A]3 [Ec] z [Af] | [A-f]3 [Ad]2 z | %436
 z2 z ^A z d | d3 B3 | A3 F3 | z6 | z6 | E3 A2 E | C3- [CE] z2 | F3 D3 | C3 F3 | F3 F3 | %446
 [^A,E]3 [B,D]3 | z2 z F3 | [^A,E]3 [B,D]3 | z6 | z6 | z6 | z6 | z2 z G3 | B3 =A3 | %455
 =c z z{/d} .c.B.c | A z z A z z | B z z .B.=c.d | G z z4 | =c z z{/d} .c.B.c | d z z =c z z | %461
 =G z z GGG | ^G3- GAB | [=ce] z z [ce][B^d][ce] | [A=c] z z [cea] z2 | [Beg] z z B=cd | %466
 [GB] z z z2 z | [=ce] z z [ce][B^d][ce] | [=d=f] z z [=ce] z z | [Bd] z z [Bd][A=c][Bd] | %470
 [=ce]3- [ce] z z | [A=c] z z [Ac][^GB][Ac] | A=GA _Bde | =f z z =c=Bc | AAB =c z z | z2 z =cBc | %476
 A z z =c z2 | z2 z B=cd | [GB]6 | [=ce] z z [ce][B^d][ce] | [A=c] z z [ce] z2 | [Be] z z B=cd | %482
 [GB] z z z2 A |!ped! !>!^c3 A z A | !>!^c3 A z A!ped-up! |!ped! [GBe]3 edB | G2 z z2 B!ped-up! | %487
 e3 A z A | e3 A z A |!ped! a3- afd | B3- Bdf!ped-up! |!ped! a3- a=ge | c3- cea!ped-up! | z6 | z6 | %495
 z6 | z6 | [df]3 [Ae] z [Ae] | [df]3 [Ae] z [Ae] | [Adf]2 z f^ef | d2 z [Ad]z[Fd] | %501
 [df]3 [Fd] z [Fd] | [df]3 [Fd] z [Fd] | B2 z dcd | B2 z d z [de] | [d-e]3 [df] z [Bde] | %506
 [d-e]3 [df] z [Bde] | [B-d-e]3 [Bdf] z [Bde] | [B-d-e]3 [Bdf] z [Bde] | [Bde]2 z4 | z6 | z6 | z6 | %513
 z6 | z6 | .G.F.G .A.G.A | .B.G.E .d.c.B | .c.B.c .d.B.G | .e.c.A z .g.f | .e.f.e .d.c.d | %520
 B3 B2 E | [ce]6 | [B^d]2 z [AB]3 | [GBd]6 | [Ac]2 z AAA | AcB AGF | EFE z2 z | c2 z F3 | =A3 F3 | %529
!ped! TG6!ped-up! | A2 z [Adf]3 | [Ace]2 z z2 z | z fe dcB | A2 z z2 z | z2 z dcB | ^A6- | %536
 A2 z edc | B2 z z2 z | z2 z cBA | G6 | B2 z dcB | Aag fed | cBA GFE | (F^D).D (AF).F | %544
 (^dA).A (fd).d | [^da]3 [df] z [df] | [^da]3 [df] z [df] | [^da]2 f [da]2 f | [^da]2 f [da]2 f | %549
 [de]3 !>![Bd]3 | !>![Ac]3 !>![Adf]3 | [ce]Ae cAE | [GB]2 z z2 z | z CE z2 [CE] | %554
 [FA]3 [EG] z [DF] | [DF]3 [CE] z2 | E6- | ECE z2 [CE] | [FA]3 [EG] z [DF] | [DF]3 [CE] z z | %560
 [DE]6 | [CE]3 [CE] z z | e6- | e3 e2 z | e6 | d2 B A2 G | d2 B A2 G | d!mf!AB cde | z2 z Bcd | %569
 [Ace]2 z c'^bc' | e2 z e^de | c2 z e^de | c2 z c^Bc | A2 z c^Bc | AGA AGA |!ped! E6 | EEA c z2 | %577
 c3!ped-up! [Bde] z e | c3 [Bde] z e | [Ac]2 z [EGB]2 z | [EAc]2 z [EGB]2 z | [EAc]2 z [CEA]2 z | %582
 [CEA]2 z [CEA]2 z | [EAc]2 z z2 z | [EAc]2 z z2 z | E2 z !fermata!z2 z |] %586
V:3
 x6 | x6 | x6 |: x6 | x6 | x6 | x6 | x6 | x6 | x6 | x6 | x6 | x6 | x6 | x6 | x6 | x6 | x6 | x6 | %19
 x6 | x6 | x6 | x6 | x6 | x6 | x6 | x6 | x6 | x6 | x6 | x6 | x6 | x6 | x6 | x6 | x6 | e6 | x6 | %38
 x6 | x6 | x6 | x6 | x6 | x6 | x6 | x6 | x6 | x6 | x6 | x6 | x6 | x6 | x6 | x6 | x6 | x6 | x6 | %57
 x6 | x6 | x6 | x6 | x6 | x6 | x6 | x6 | x6 | x6 | x6 | x6 | x6 | x6 | x6 | x6 | g!f!fg fgf | %74
 g!f!fg fgf | x6 | x6 | [fa]!f![eg][fa] [eg][fa][eg] | [fa]!f![eg][fa] [eg][fa][eg] | x6 | x6 | %81
 x6 | x6 | x6 | x6 | x6 | x6 | x6 | x6 | x6 | x6 | x6 | x6 | x6 | x6 | x6 | x6 | x6 | x6 | x6 | %100
 x6 | x6 | x6 | x6 | x6 | x6 | x6 | x6 | x6 | x6 | x6 | F3 G x A | A3!p! G2 z | x6 | x6 | x6 | x6 | %117
 x6 | x3 b3- | b3 ^a z g | x6 | x6 | x6 | x6 | x6 | [^df]3 [eg] z [fa] | [fa]3 [eg] x x | x6 | x6 | %129
 x6 | x6 | x6 | x6 | x6 | x6 | x6 | x6 | x6 | x6 | x6 | x6 | x6 | x6 | x6 | x6 | x6 | x6 | x6 | %148
 x6 | x6 | x6 | x6 | x6 | x6 | x6 | x6 | x6 | x6 | x6 | x6 | x6 | x6 | x6 | x6 | x6 | x6 | x6 | %167
 x6 | x6 | x6 | x6 | x6 | x6 | x6 | x6 | x6 | x6 | x6 | x6 | x6 | x6 | x6 | x6 | x6 | x6 | x6 ||1 %186
 x6 | x6 | x6 | x6 | x6 | e3 ^d2 c | c3 B2 B | x6 | ^d3 e2 z | a2 f e2 ^d | ^d3 e3 | a2 f e2 ^d | %198
 ^d3 e2 e | x6 | x6 | x6 | x6 | x6 | x6 | x6 | x6 | x6 | x6 :|2 x6 | x6 | x6 || x6 | x6 | x6 | x6 | %216
 x6 | x6 | x6 | x6 | x6 | x6 | x6 | x6 | x6 | x6 | x6 | x6 | x6 | x6 | x6 | x6 | x6 | x6 | %234
 e z z e z z | x6 | z .A.B =c z z | x6 | z .A.B =c z z | x6 | x6 | x6 | x6 | x6 | x6 | x6 | x6 | %247
 x6 | x6 | x6 | x6 | x6 | x6 | x6 | x6 | x6 | x6 | x6 | x6 | x6 | x6 | x6 | x6 | x6 | x6 | x6 | %266
 x6 | x6 | x6 | x6 | x6 | x6 | x6 | x6 | x6 | x6 | x6 | x6 | x6 | x6 | x6 | x6 | x6 | x6 | x6 | %285
 x6 | x6 | x6 | x6 | x6 | x6 | x6 | x6 | x6 | x6 | x6 | x6 | x6 | x6 | x6 | x6 | x6 | x6 | x6 | %304
 x6 | x6 | x6 | x6 | x6 | x6 | b2 z{/c'} b^ab | x6 | x6 | x6 | x6 | x6 | x6 | x6 | x6 | x6 | x6 | %321
 x6 | x6 | x6 | x6 | x6 | x6 | x6 | x6 | x6 | x6 | x6 | x6 | x6 | x6 | x6 | x6 | x6 | x6 | x6 | %340
 x6 | x6 | x6 | x6 | x6 | f2 z z2 z | x6 | x6 | x6 | x6 | x6 | x6 | x6 | x6 | x6 | x6 | x6 | x6 | %358
 x6 | x6 | x6 | x6 | x6 | x6 | x6 | x6 | x6 | x6 | x6 | x6 | x6 | x6 | x6 | x6 | x6 | x6 | x6 | %377
 x6 | x6 | x6 | x6 | x6 | x6 | x6 | x6 | x6 | x6 | x6 | x6 | x6 | x6 | x6 | x6 | x6 | x6 | x6 | %396
 x6 | x6 | x6 | x6 | x6 | x6 | x6 | x6 | x6 | x6 | x6 | x6 | x6 | x6 | x6 | x6 | x6 | x6 | x6 | %415
 x6 | x6 | x6 | x6 | x6 | x6 | x6 | x6 | x6 | x6 | e3 e3 | x6 | x6 | x6 | x6 | x6 | x6 | x6 | x6 | %434
 x6 | x6 | x6 | x6 | x6 | x6 | x6 | x6 | x6 | x6 | x6 | x6 | x6 | x6 | x6 | x6 | x6 | x6 | x6 | %453
 x6 | x6 | x6 | x6 | x6 | x6 | x6 | x6 | x6 | x6 | x6 | x6 | x6 | x6 | x6 | x6 | x6 | x6 | x6 | %472
 x6 | x6 | x6 | x6 | x6 | x6 | x6 | x6 | x6 | x6 | x6 | x6 | x6 | x6 | x6 | x6 | x6 | x6 | x6 | %491
 x6 | x6 | x6 | x6 | x6 | x6 | x6 | x6 | x6 | x6 | x6 | x6 | x6 | x6 | x6 | x6 | x6 | x6 | x6 | %510
 x6 | x6 | x6 | x6 | x6 | x6 | x6 | x6 | x6 | x6 | x6 | x6 | x6 | x6 | x6 | x6 | x6 | x6 | x6 | %529
 x6 | x6 | x6 | x6 | x6 | x6 | x6 | x6 | x6 | x6 | x6 | x6 | x!8va(! x5 | x6!8va)! | x6 | x6 | %545
!8va(! x6 | x6 | x6 | x6!8va)! | x6 | x6 | x6 | x6 | x6 | x6 | x6 | d'2 b a2 g | x6 | %558
 [fa]3 [eg] z [df] | x6 | d'2 b a2 g | x6 | d'2 b a2 g | x6 | x6 | e6 | e6 | x6 | x6 | x6 | x6 | %571
 x6 | x6 | x6 | x6 | x6 | x6 | x6 | x6 | x6 | x6 | x6 | x6 | x6 | x6 | x6 |] %586
V:4
 x6 | x6 | x6 |: x6 | x6 | x6 | x6 | x6 | x6 | x6 | x6 | x6 | x6 | x6 | x6 | x6 | x6 | x6 | x6 | %19
 x6 | x6 | x6 | x6 | x6 | x6 | x6 | x6 | x6 | x6 | x6 | x6 | x6 | x6 | x6 | x6 | x6 | x6 | x6 | %38
 x6 | x6 | x6 | x6 | x6 | x6 | x6 | x6 | x6 | x6 | x6 | x6 | x6 | x6 | x6 | x6 | x6 | x6 | x6 | %57
 x6 | x6 | x6 | x6 | x6 | x6 | x6 | x6 | x6 | x6 | x6 | x6 | x6 | x6 | x6 | x6 | x6 | x6 | x6 | %76
 x6 | x6 | x6 | x6 | x6 | x6 | x6 | x6 | x3 [F^A]3 | x6 | x6 | x6 | x6 | x6 | x6 | x6 | x6 | x6 | %94
 x6 | x6 | x6 | x6 | x6 | x6 | x6 | x6 | x6 | x6 | x6 | x6 | x6 | x6 | x6 | x6 | x6 | x6 | x6 | %113
 x6 | x6 | x6 | x6 | x6 | x6 | x6 | x6 | x6 | x6 | x6 | x6 | [^DF]3 [EG] z [FA] | [FA]3 [EG] x x | %127
 x6 | x6 | x6 | x6 | x6 | x6 | x6 | x6 | x6 | x6 | x6 | x6 | x6 | x6 | x6 | x6 | x6 | x6 | x6 | %146
 x6 | x6 | x6 | x6 | x6 | x6 | x6 | x6 | x6 | x6 | x6 | x6 | x6 | x6 | x6 | x6 | x6 | x6 | x6 | %165
 x6 | x6 | x6 | x6 | x6 | x6 | x6 | x6 | x6 | x6 | x6 | x6 | x6 | x6 | x6 | x6 | x6 | x6 | x6 | %184
 x6 | x6 ||1 x6 | x6 | x6 | x6 | x6 | x6 | x6 | x6 | G6 | x6 | x6 | [^DF]3 [FA]3 | x6 | x6 | x6 | %201
 x6 | x6 | x6 | x6 | x6 | x6 | x6 | x6 :|2 x6 | x6 | x6 || x6 | x6 | x6 | x6 | x6 | x6 | x6 | x6 | %220
 x6 | x6 | x6 | x6 | x6 | x6 | x6 | x6 | x6 | x6 | x6 | x6 | x6 | x6 | x6 | x6 | x6 | x6 | x6 | %239
 x6 | x6 | x6 | x6 | x6 | x6 | x6 | x6 | x6 | x6 | x6 | x6 | x6 | x6 | x6 | x6 | x6 | x6 | x6 | %258
 x6 | x6 | x6 | x6 | x6 | x6 | x6 | x6 | x6 | x6 | x6 | x6 | x6 | x6 | x6 | x6 | x6 | x6 | x6 | %277
 x6 | x6 | x6 | x6 | x6 | x6 | x6 | x6 | x6 | x6 | x6 | x6 | x6 | x6 | x6 | x6 | x6 | x6 | x6 | %296
 x6 | x6 | x6 | x6 | x6 | x6 | x6 | x6 | x6 | x6 | x6 | x6 | x6 | x6 | x6 | x6 | x6 | x6 | x6 | %315
 x6 | x6 | x6 | x6 | x6 | x6 | x6 | x6 | x6 | x6 | x6 | x6 | x6 | x6 | x6 | x6 | x6 | x6 | x6 | %334
 x6 | x6 | x6 | x5[K:bass] x | x6 | x6 | x6 | x5[K:treble] x | x6 | x6 | x6 | x6 | x6 | x6 | x6 | %349
 x6 | x6 | x6 | x6 | x6 | x6 | x6 | x6 | x6 | x6 | x6 | x6 | x6 | x6 | x6 | x6 | x6 | x6 | x6 | %368
 x6 | x6 | x6 | x6 | x6 | x6 | x6 | x6 | x6 | x6 | x6 | x6 | x6 | x6 | x6 | x6 | x6 | x6 | x6 | %387
 x6 | x6 | x6 | x6 | x6 | x6 | x6 | x6 | x6 | x6 | x6 | x6 | x6 | x6 | x6 | x6 | x6 | x6 | x6 | %406
 x6 | x6 | x6 | x6 | x6 | x6 | x6 | x6 | x6 | x6 | x6 | x6 | x6 | x6 | x6 | x6 | x6 | x6 | x6 | %425
 z2 z E3 | x6 | x6 | x6 | x6 | x6 | x6 | x6 | x6 | x6 | x6 | x6 | x6 | x6 | x6 | x6 | x6 | x6 | %443
 x6 | x6 | x6 | x6 | x6 | x6 | x6 | x6 | x6 | x6 | x6 | x6 | x6 | x6 | x6 | x6 | x6 | x6 | x6 | %462
 x6 | x6 | x6 | x6 | x6 | x6 | x6 | x6 | x6 | x6 | x6 | x6 | x6 | x6 | x6 | x6 | x6 | x6 | x6 | %481
 x6 | x6 | x6 | x6 | x6 | x6 | x6 | x6 | x6 | x6 | x6 | x6 | x6 | x6 | x6 | x6 | x6 | x6 | x6 | %500
 x6 | x6 | x6 | x6 | x6 | x6 | x6 | x6 | x6 | x6 | x6 | x6 | x6 | x6 | x6 | x6 | x6 | x6 | x6 | %519
 x6 | x6 | x6 | x6 | x6 | x6 | x6 | x6 | x6 | x6 | x6 | x6 | x6 | x6 | x6 | x6 | x6 | x6 | x6 | %538
 x6 | x6 | x6 | x6 | x6 | x6 | x6 | x6 | x6 | x6 | x6 | x6 | x6 | x6 | x6 | x6 | x6 | x6 | x6 | %557
 x6 | x6 | x6 | x6 | x6 | x6 | x6 | d2 B A2 G | x6 | x6 | x6 | x6 | x6 | x6 | x6 | x6 | x6 | x6 | %575
 x6 | x6 | x6 | x6 | x6 | x6 | x6 | x6 | x6 | x6 | x6 |] %586
V:5
!f! !/![E,A,CE]6 | !/![E,A,CE]6 | !/![A,CE]6 |: !/![A,CE]6 | !/![B,DE]6 | !/![B,DE]6 | !/![CE]6 | %7
 !/![A,D]6 | !/![B,DE]6 | !/![A,CE]6 | [A,D][A,D][A,D] [A,E][A,E][A,E] | !/![A,B,DF]6 | %12
 [A,D][A,D][A,D] [A,E][A,E][A,E] | !/![A,B,DF]6 |[K:treble] !/![B,A]6 | !/![B,^DFA]6 | %16
[K:bass] [E,B,D][E,B,D][E,B,D] [^E,B,D][E,B,D][E,B,D] | %17
 [F,B,D][F,B,D][F,B,D] [G,B,D][G,B,D][G,B,D] |!p! [A,C] z z [A,CE] z z | [A,B,] z z [A,B,D] z z | %20
 [E,A,C][E,A,C][E,A,C] [E,A,C] z z | [E,G,B,D][E,G,B,D][E,G,B,D] [E,G,B,D] z2 | %22
 [A,C][A,C][A,C] [A,C] z!f! A, | C3 A, z A, | C!p! .A,.B, .C.G,.A, | .E,.C,.D, .E,.^B,,.C, | %26
 .A,,.C,.F, A,2!f! A, | C3 A, z A, | C!p! .A,.B, .C.G,.A, | .F,.F,.G, .A,.C,.^D, | .E,.G,.C .E2 z | %31
 z6 | z B,C D^A,B, | E,B,,C, D,^A,,B,, | z [E,B,D][E,B,D] [E,B,D][E,B,D][E,B,D] | !/![E,B,D]6 | %36
 [E,A,C]A,B, CG,A, | E,2 z z2 z | z [E,A,C][E,A,C] [E,A,C][E,A,C][E,A,C] | !/![E,A,C]6 | %40
 !/![F,A,B,]6 | !/![F,A,B,]6 | [F,A,B,]A,G, F,E,^D, | z A,G, F,E,^D, | z A,G, F,E,^D, | %45
 z A,G, F,E,^D, | z2 z =DC"_cresc."B,!mf! | A,G,F, E,D,C, | B,,E,D, C, z C | B,A,G, F,E,D, | %50
!ff! C,!f![A,CE][A,CE] [A,CE][A,CE][A,CE] | !/![A,CE]6 | !/![G,B,DE]6 | !/![E,G,B,D]6 | %54
 !/![E,A,C]6 | !/![F,A,D]6 | !/![E,B,D]6 | !/![E,A,C]6 | !/![F,A,B,^D]6 | %59
 [B,=DE][B,=DE][B,=DE] [E,G,B,D][E,G,B,D][E,G,B,D] | [F,A,C][F,A,C][F,A,C] [G,B,E][G,B,E][G,B,E] | %61
 !/![A,CE]6 |[K:treble] !/![B,^DA]6 | %63
[K:bass]!f! [G,B,E][G,B,E][G,B,E] [E,G,B,E][E,G,B,E][E,G,B,E] | %64
 [F,A,C][F,A,C][F,A,C] [E,G,B,E][E,G,B,E][E,G,B,E] | [A,CE] z z z2 z | %66
 z!f! .[E,G,B,].[E,A,C] .[E,G,B,].[E,A,C].[E,G,B,] | [E,A,C] z z z2 z | %68
 z .[F,^A,C].[F,B,D] .[F,A,C].[F,B,D].[F,A,C] | [F,B,D] z z z2 z | %70
 z[K:treble] .[A,CE].[A,DF] .[A,CE].[A,DF].[A,CE] | [A,DF] z z z2 z | z2 z z2!ff! A, | %73
 !>![B,^DF]3 A, z A, | !>![B,^DF]3 A, z A, | B,3!ff! B,[K:bass] A,F, | ^D,2 z z2[K:treble] B, | %77
!f! [EG]3 [B,EG] z B, | [EG]3!f! [B,EG] z B, | G3- GEB, |[K:bass] G,3 C,3 | %81
[K:treble] [CEF]!f!G[CEF] G[CEF]G | [CEF]!f!G[CEF] G[CEF]G | %83
 [CEF]G[CEF][K:bass] [F,CE][F,CE][F,CE] | !/![F,CE]6 |!f! [B,^DF][B,DF][B,DF] [B,DF][B,DF][B,DF] | %86
 [B,^DF]6 | [B,^DF]6 | [B,^DF]6 |!f! [B,^DF]2 z[K:treble]!pp! .e.c.[B^d] | .[Ac].G.A .c.A.[GB] | %91
 .[FA].[EG].[FA][K:bass]!<(! [F,B,]3!<)! |!mp! [G,B,]3!p!!>(! [E,B,E]3!>)! | %93
!pp! .[F,B,^D].C.D .E.C.[B,D] | .[A,C].G,.A, .C.A,.[G,B,] | .[F,A,].[E,G,].[F,A,] .^D,.A,.F, | %96
 .=G,.E,.G, .B,.G,.A, | .B,.^A,.B, .A,.B,.A, | .B,.=C.B, .C.B,.C | .B,.^A,.B, .A,.B,.A, | %100
 .B,.=C.B, .C.B,.C | .B,.^A,.B, .^C.B,.A, | .B,.C.^D .E.B,.D |[K:treble] .C.^D.E .G.D.F | %104
 .E.F.G .B.F.A | [EG]6- | [EG]6- | [EG]GE B,EG | FA^D B,CA, |[K:bass] [E,G,]3 x x E | [CE]3 C2 A, | %111
 [^D,F,]3 G,2 A, | [F,A,]3 [E,G,]B,,E, | [E,G,]3 B,2 x | E6 | C2 x4 | z ^B,G, [B,^D]G,^D, | %117
 z G,^D, ^B,G,D, | z G,C, CG,C, | z [B,C]G, [CG]B,G, | z [B,^D]F, [DF]B,F, | z [CE]F, [EF]CF, | %122
 ^DB,D F=A,F, | E,G,B, EE,B, | z A,C EA,C | z F,D, B,F,B,, | z E,B,, G,E,B,, | z G,E, B,G,E, | %128
 z F,C, ^A,F,C, | z ^A,F, CA,F, | z B,F, ^DB,F, |"_cresc." z [B,^DF]F, [B,DF]3- | %132
 [B,DF][B,^DF]F, [B,DF]3- | [B,DF][B,^DF]F, [B,DF]3- | [B,DF][B,^DF]F, [B,DF]3- | %135
!mf! [B,DF]F,[B,^DF]"_cresc." F,[B,DF]F, | [B,^DF]F,[B,DF] F,[B,DF]F, | %137
 [B,^DF]F,[B,DF] F,[B,DF]F, | [B,^DF]F,[B,DF] F,[B,DF]F, |!f! [E,B,E]3- [E,B,E]2 [E,B,E] | %140
 [E,-CE]3 [E,A,C]2 z |!p! C,2 z z2 z | F,2 z F,2 z | G,2 z A,2 z | B,2 z z2 z | B,,2 z z2 z | %146
 E,3 [G,B,]2 E, |!f! [E,B,]6 | [E,A,C]6 |!p! C6 | C3 [=C^D]3 | [B,E]3 [A,^C]3 | z2 z [=C^D]3 | %153
 [B,E]3 [A,^C]3 | z6 | z2 z!pp! A,3 | G,3 F,3 | A,3 F,3 |[K:treble] ECE GEC | ECE GEC | ^DCD GDC | %161
 ^D^B,D GDB, | E^DE"_cresc." GED | ECE GEC | ^D^B,D FDB, | ECA, EC^A, |!f! !/![B,EG]6 | %167
 !/![B,EG]6 | !/![B,^DF]6 | !/![B,^DF]6 |[K:bass]!ff! !/![E,B,=D]6 | !/![E,B,=D]6 | %172
 [E,A,C][E,A,C][E,A,C] [E,A,C] z z | [E,A,CE][E,A,CE][E,A,CE] [E,A,CE] z z |!ff! z B,C DCB, | %175
 A,F,E, ^D,2 z |!f! !/![E,B,=D]6 |!f! !/![E,B,D]6 | [E,A,C][E,A,C][E,A,C] [E,A,C] z z | %179
 [E,A,CE][E,A,CE][E,A,CE] [E,A,CE] z z |!ff! z B,C DCB, | A,F,E, ^D,2 z | !/![E,G,B,]6 | [G,B,]6 | %184
 [E,G,B,]6 | [E,G,B,]6 ||1 [G,B,]2 z z2!p! [G,B,] | !>![CE]3 [B,^D]2 [A,C] | [A,C]3 [G,B,]3 | z6 | %190
 z2 z z2 [G,B,] | [CE]3 [B,^D]2 [A,C] | [A,C]3 [G,B,]3 | z6 | [B,,B,]6- | [B,,B,]6 | [B,,B,]6- | %197
 [B,,B,]6- | [B,,B,]3 z z2 |[K:treble]!p! [E=G]6 | [^DF]6 | [C=F]6 | [CE]6 |"_cresc." [A,C]6 | %204
[K:bass] [F,A,]6 | [D,F,]6 |!f! [E,G,].E,.F, .G,.A,.B, | z6 | !/![E,A,C]6 :|2 [G,B,]2 z z2 z | %210
 [E,E]6- | [E,E]3!p! [E,G,B,]3 || =C3 E3 | E6- | E6- | E3 [E,G,B,]3 | [A,=C]3 [A,E]3 | %217
 .[=F,A,].E,.F, .A,.F,.E, | D,2 z z2 z | .=F,.E,.F, .A,.F,.E, | D,2 z z2 z | .=F,.E,.F, .A,.D.E | %222
 =F2 z4 | z6 | z6 | z6 |!pp! .[E,=G,A,] z z .[E,G,A,] z z | .[D,=F,A,] z z z2 z | z6 | z6 | %230
 .[G,B,D] z z .[G,B,D] z z | .[A,=C] z z z2 z |[K:treble]!p! A2 z{/_B} A^GA | =F2 z z2 z | %234
 E2 z{/=F} E^DE | =C2 z z2 z |[K:bass] B,2 z{/=C} .B,.^A,.B, | E,2 z z2 z | B,2 z{/=C} .B,.^A,.B, | %239
 E,2 z z2 z | z[K:treble] .[D=F].[E=G] .[F_A].D.B, | .=G,.=C.D ._E.D.C | [=G,D]B,=C D2 z | %243
 z [E=G][^FA] [G_B]3- | [GB][E=G][=FA] [G_B]E^C | A,DE =FED | A,CD!pp! E2 z |[K:bass] A,2 z z2 z | %248
 B,B,^C ^DEF | =G2 z E2 z | z F,=G, A,B,=C | A,2 z F,2 z | z2 z z A,,B,, | ^C,E,F, =G,A,B, | %254
 C2 z C2 z | z E,F,"_cresc." =G,A,B, | DF,^G, ^A,B,C | DB,C DEF | =GED CDE | ^A,CB, A,B,C | %260
!mf! F,2 z F,G,^A, | B,2 z"_cresc." B,C[F,D] | =G, z z EF=G | C3 CDE |!f! FED CDC | B,DC B,=G,F, | %266
 E,2 z EDC | FED CB,^A, | B,^D,E, F,G,^A, |!f! B,F,G, ^A,B,C | [^DF]6- | [DF]3- [DF]2!f! B, | %272
 !>![E,E]3 B, z B, | !>![E,E]3 B, z B, |{/E,} E6 | B,6 | [E,A,]C,D, E,F,G, | A,E,F, G,A,B, | %278
 [CE]6- | [CE]3- [CE]2 A, | !>![D,D]3 A, z A, | !>!D3 A, z A, | [=CD]3- [CD]DE | FA,B, =CE,F, | %284
!ff! !/![E,=G,=C]6 | !/![E,=G,=C]6 | [=F,=G,B,D]2 z[K:treble] z G=F | %287
 DB,=G,[K:bass] =F,D,[B,,=G,] | [E,=G,]E,E, E,E,E, | !/!D,6 | [^C,A,]6 | ECA, =G,E,A, | %292
 !/![F,A,D]6 | !/![F,^A,C]6 | !>![F,B,]2 z z B,=A, | F,^DB, A,F,B, |!ff! E,=G,A, B,C^D | %297
 EE,F, =G,A,B, | [E,=C]A,B, CB,A, | E,F,=G, A,G,F, | [E,=G,B,]2 z [G,B,][F,^A,][G,B,] | %301
 [A,=C]2 z [A,CE]2 z | [F,A,]2 z [F,A,][E,=G,][F,A,] | B,F,=G, A,G,F, | E,=G,A, B,C^D | %305
 EE,F, =G,A,B, | [E,=C]A,B, CB,A, | E,F,=G, A,G,F, | [E,=G,B,]2 z [E,G,B,][E,G,B,][E,G,B,] | %309
 F,B,^C DCB, | ^E3 ^E,3- | E,^E,F, G,A,B, |!ff! [F,A,C]2 z [F,A,C][F,A,C][F,A,C] | %313
 [F,A,]CB, A,G,F, | B,G,A, B,A,G, | ^E,3 C, z C, | A,3 F, z F, | A,3 F, z F, | %318
 C,2 z{/D,} C,^B,,C, | C3 B,3 | A,3 F, z F, | A,3 F, z F, | C,2 z{/D,} C,^B,,C, | C3 B,3 | %324
 ^A,3 F, z F, | ^A,3 F,!ff! z F, | [^E,G,]6 | [^E,G,]6 |"_dim." [^E,G,]6 | [^E,G,]6 | %330
 [^E,G,]2 z z2!p! C, | C,6 | z2 z z2 C, | C,6 | z2 z z2 C, | C,6 | z2 z z2 C, | C,6 | z2 z z2 C, | %339
 C,6 | z2 z z2 C, | C,6 | z2 z z2 C, | C,6 | z6 | z2 z z2 [F,A,] | [E,=G,]3- [E,G,] z z | %347
 z2 z z2 [=G,A,] | [=G,D]3- [G,D] z z | z2 z z2 [=G,D] | [=G,E]3 [E,C] z z | z6 | z6 | z6 | %354
!pp! z F,[DF] [DF]F,[DF] | [DF]F,[DF] [DF]F,[DF] | [DF]F,[DF]"_cresc." [DF]F,[DF] | %357
 [DF]F,[DF] [DF]F,[DF] | [DF][K:treble] A,[FA] [FA]A,[FA] | [FA]A,[FA] [FA]A,[FA] | %360
 [FA]A,[CFA] [CFA]A,[CFA] | [CFA]A,[CFA] [CFA]A,[CFA] | [CFA]A,C[K:bass]!mf! [A,C]F,[A,C] | %363
 [A,C]"_cresc."F,[A,C] [A,C]F,[A,C] | [A,C]F,[A,C] F,[A,C]F, | [A,C]F,[A,C] F,[A,C]F, | %366
!f! [A,C]!<(!F,[A,C] F,[A,C]F, | [A,CD]F,[A,CD] F,[A,C^D]F,!<)! |!ff! !/![A,CE]6 | !/![A,CE]6 | %370
 !/![G,B,DE]6 | !/![G,B,DE]6 | !/![CE]6 | !/![A,D]6 | !/![B,DE]6 | !/![A,CE]6 | %376
 [A,D][A,D][A,D] [A,E][A,E][A,E] | !/![A,B,DF]6 | [A,D][A,D][A,D] [A,E][A,E][A,E] | !/![A,B,F]6 | %380
 !/![B,D]6 | !/![B,D]6 | C z z!p! [A,CE] z z | [A,B,F] z z [A,B,D] z z | %384
 [A,C][A,C][A,C] [A,C] z z | [G,B,D][G,B,D][G,B,D] [G,B,D] z z | %386
 [F,A,C][F,A,C][F,A,C] [F,A,C] z z | [F,A,B,^D][F,A,B,D][F,A,B,D] [F,A,B,D] z z | %388
 [=B,D][B,D][B,D]!<(! [^E,B,D][E,B,D][E,B,D] | [F,B,D][F,B,D][F,B,D] [G,B,D][G,B,D][G,B,D]!<)! | %390
!mf! [A,C] z z!p! [A,E] z z | [A,B,D] z z [A,B,DF] z z | [G,B,E] z z [G,^B,E] z z | %393
 [G,CE] z z [G,CE] z z | [A,C] z z [A,C] z z | [A,D] z z [A,D] z z | %396
 [B,DE] z z[K:treble] [B,DF] z z | [B,DE] z z [B,DF] z z | [B,DE]^A,B, DGF | E^A,B, DGF | %400
 [B,DE]6- | [B,DE]3- [B,DE]2 z | z6 | z E^D =DB,E |!mf! [A,C]3 [CE] z [FA] | [FA]3 [DF]2 z | %406
 [G,B,]3 [A,C] z [B,D] | [B,D]3 [A,C]2 z | [A,C]3 [CE] z [EA] | ([^D-A]6 | [DF]2) z [B,^D] z2 | %411
 [EB]6 |!mf! A3 G3 | [^DF]3 [CE]3 | [B,^D]3 [A,C]3 |[K:bass] B,3 E3 | B,6 | [G,B,E]6 | %418
 [A,C]EC A,CA, | F,A,D FDA, | EDB, EB,G, | EDB, ECA, | E,A,C ECA, | F,A,D FDA, | F,B,D FDB, | %425
 EDB, G,B,G, |!p! D,[E,G,B,]D,"_cresc." [E,G,B,]D,[E,G,B,] | D,[E,G,B,]D, [E,G,B,]D,[E,G,B,] | %428
 D,[E,G,B,]D, [E,G,B,]D,[E,G,B,] | D,[E,G,B,]D, [E,G,B,]D,[E,G,B,] | %430
 D,[E,G,B,]D, [E,G,B,]D,[E,G,B,] | D,[E,G,B,]D, [E,G,B,]D,[E,G,B,] | %432
 D,[E,G,B,]D, [E,G,B,]D,[E,G,B,] | D,[E,G,B,]D, [E,G,B,]D,[E,G,B,] |!f! [E,A,]6 | [F,A,DF]6 | %436
 [F,^A,F-]6 | [B,F]3 [G,=F]3 | [A,E]3 [B,D]3 |!p! [A,C]6 | D6 | [A,C]3 C2 A, |!f! [E,A,-]6 | %443
 [F,A,]6 |!p! [F,^A,]6 | B,3 B,,3 | C,3 D,3 | z2 z"_dim." B,,3 | C,3!pp! D,3 | z6 | z2 z!pp! D3 | %451
 C3 B,3 | ^A,3 B,3 | D3 z2 z | z6 |!p! [A,=CE] z z [A,CE][A,CE][A,CE] | [A,=CE] z z [A,CE] z z | %457
 [B,DE] z z [B,DE][B,DE][B,DE] | [B,DE] z z z2 z |!p! [A,=CE] z z [A,CE][A,CE][A,CE] | %460
 [A,D=F] z z [A,DF] z z | [=G,=F] z z [G,F][G,F][G,F] | !>![B,DE]3- [B,DE] z z | %463
 [E,A,=C]EA, CE,A, | [E,=C] z z [A,CE] z z | [B,DE] z z [B,DE][B,DE][B,DE] | [B,DE]=FE D=CB, | %467
 [A,=C] z z [A,CE][A,CE][A,CE] | [A,D=F][K:treble] DE =F=GA | =F z z [=G,F=G][G,FG][G,FG] | %470
 [=G,E=G]3- [G,EG] z z | z A,_B, =CDE | =F z z [_B,D] z z | [A,=C]A,_B, CDE | [=C=F] z z z2 z | %475
[K:bass] z CD"_cresc." _EA,=F, | E,A,B, =CA,=F, | E,B,=C DB,G, |!mf! E,[D=F][=CE] [B,D]CB, | %479
 E=CB,"_cresc." A,CE | E=CB, A,CE | DB,=C DCB, | EDA, G,A,B, |!f! E,A,^C ECA, | E,A,C ECA, | %485
 G,B,D EB,G, | E,G,B, EB,G, |!ff! !/![A,E=G]6 | !/![A,E=G]6 | [A,DF][A,DF][A,DF] [A,DF] z z | %490
 [A,DF][A,DF][A,DF] [A,DF] z z | [A,CE=G][A,CEG][A,CEG] [A,CEG] z z | %492
 [A,CE=G][A,CEG][A,CEG] [A,CEG] z2 | [A,DF]2 z!f! A,2 z | A,2 z [A,=G]2 z | [A,F]2 z A,2 z | %496
 A,2 z [A,=G]2 z |!ff! [DF]3 [A,E] z [A,E] | [DF]3 [A,E] z [A,E] | [A,DF]6 | %500
 [A,DF]2 z [CDF]z[F,D] | [B,D]3 [F,D] z [F,D] | [B,D]3 [F,D] z [F,D] | [B,DF]6 | %504
 [B,DF]2 z [A,B,D] z [A,B,D] | [D-E]3 [DF] z [DE] | [D-E]3 [DF] z [DE] | [DE]2 z [E,B,DE]3 | %508
 [E,B,DE]3 [E,B,DE]3 | [E,B,DE]2 z z2 z | z6 | z6 | z!p! .B,.C .D.C.B, | .C.B,.C .D.C.D | %514
 .E.C.A, .F.E.F | B,2 z D3- | D3 [G,B,]3 | [A,C]3 [DE]3 | [CE]3[K:treble] [B,-A]3 | %519
 [B,G]3 [B,-=D-F]3 | [B,DE][K:bass].G,.A, .B,.C.B, | .^A,.F,.G, .A,.B,.C | .^D.B,.F, .F,.F,.F, | %523
 .G,.^E,.F, .G,.A,.B, | .A,.C.F [DF]3 | [CE]6 | [B,D]2 z DCB, | ^A,F,G,"_cresc." A,B,C | %528
 ^DB,F, F,F,F, | G,^E,F, G,A,B, | CA,C [A,DF][A,DF][A,DF] | [A,CE]6 | [B,DE]6 |!mf! [A,CE]6 | %534
 [B,DE]6 |"_cresc." [^A,CF]6- | [A,CF]6 | [B,DF]6- | [B,DF]6 | [G,B,E]6- | [G,B,E]2 z z2 z | %541
 [E,A,CE]6 | [E,A,C]6 |!f! [^D,A,=C]6- | [D,A,C]3 z2 z |[K:treble]!ff! [B,-FA-]3 [B,^DA] z [B,DA] | %546
 [B,-FA-]3!ff! [B,^DA] z [B,DA] | [B,A]!ff!F^D [B,A]!ff!FD | [B,A]!ff!F^D [B,A]!ff!FD | %549
 EB,E =DB,G, |[K:bass] CA,F, FDB, | [CE]3 z2 z | [G,D]B,G, E,EE, | A,6- | A,6- |!p! A,3 E,A,C | %556
 [E,D]6 | A,A,A, A, z z | A,A,A, A, z z | z2 z E,A,C |"_cresc." [G,B,][G,B,][G,B,] [G,B,] z2 | %561
 z2 z A,CE |[K:treble] [B,DEG][B,DEG][B,DEG] [B,DEG] z z | [CEA] z z CEA | %564
[K:bass] [G,B,E][G,B,E][G,B,E] [B,DE] z z | %565
!f! [G,B,DE]"_cresc."[G,B,DE][G,B,DE] [G,B,DE][G,B,DE][G,B,DE] | %566
 [G,B,DE][G,B,DE][G,B,DE] [G,B,DE][G,B,DE][G,B,DE] | %567
!ff! [G,B,DE]2!mf! z"_cresc." [G,B,DE][G,B,DE][G,B,DE] | [G,B,DE]3 [G,B,DE]3 |!ff! !/![E,A,CE]6 | %570
 !/![E,A,CE]6 | !/![E,A,CE]6 | !/![E,A,CE]6 | !/![E,A,CE]6 | !/![E,A,CE]6 | !/![E,A,C]6 | %576
 !/![E,A,C]6 | [E,A,C][E,A,C][E,A,C] (([B,D]!ff!E,)).E, | ([A,C]E,).E, ([B,D]!ff!E,).E, | %579
 [E,A,C]2 z [E,G,B,]2 z | [E,A,C]2 z [E,G,B,]2 z | [E,A,C]2 z A,2 z | A,2 z A,2 z | %583
 [E,A,C]2 z z2 z | [E,A,C]2 z z2 z | [E,A,C]2 z !fermata!z2 z |] %586
V:6
!ped! [A,,,A,,]2 z z2 z!ped-up! |!ped! z6!ped-up! |!ped! !/!E,6!ped-up! |:!ped! !/!E,6!ped-up! | %4
!ped! !/![E,G,]6!ped-up! |!ped! !/![E,G,]6!ped-up! |!ped! !/!A,6!ped-up! |!ped! !/!F,6!ped-up! | %8
!f!!ped! G,G,G,!ped-up!!ped! E,E,E,!ped-up! | A,,2 z G,,2 z | %10
!ped! [F,,F,][F,,F,][F,,F,]!ped-up!!ped! [E,,E,][E,,E,][E,,E,]!ped-up! | [D,,D,] z z z2 z | %12
!ped! [F,,F,][F,,F,][F,,F,]!ped-up!!ped! [E,,E,][E,,E,][E,,E,]!ped-up! | [^D,,^D,] z z z2 z | %14
!ped! [^D,,^D,][D,,D,][D,,D,]!ped-up!!ped! [C,,C,][C,,C,][C,,C,]!ped-up! | [B,,,B,,] z z4 | %16
!ped! E,,E,,E,,!ped-up!!ped! ^E,,E,,E,,!ped-up! |!ped! F,,F,,F,,!ped-up!!ped! G,,G,,G,,!ped-up! | %18
 A,, z z C, z z | D, z z B,, z z |!ped! E,, z z!ped-up! z2 z |!ped! E,, z z!ped-up! z2 z | %22
!ped! !>![F,,,F,,] z z!ped-up! z2 z | z6 | z2 z !>!A,,,2 z | !>!A,,,2 z !>!A,,,2 z | %26
 !>![F,,,F,,]2 z z2 z | z6 | z2 z !>![F,,,F,,]2 z | !>![F,,,F,,]2 z !>![F,,,F,,]2 z | C,,2 z4 | %31
 z6 | G,,6 | G,,6 | G,,6 | G,,6 | A,,6 | A,,A,,B,, C,G,,A,, | E,,6 | E,,6 | %40
 z!ped! B,,,C,, ^D,,E,,F,,!ped-up! |!ped! G,,A,,B,, C,^D,E,!ped-up! | %42
 z!ped! F,,E,, ^D,,C,,B,,,!ped-up! | z!ped! F,,E,, ^D,,C,,B,,,!ped-up! | %44
 z!ped! F,,E,, ^D,,C,,B,,,!ped-up! | z!ped! F,,E,, ^D,,C,,B,,,!ped-up! | %46
!ped! z =D,C, B,,A,,G,,!ped-up! |!ped! F,,E,,D,, C,,B,,,A,,,!ped-up! | %48
!ped! G,,, z z!ped-up!!ped! z B,,A,,!ped-up! |!ped! G,,F,,E,, D,,C,,B,,,!ped-up! | %50
 A,,,A,,A,, A,,A,,A,, | !/!A,,6 | !/!G,,6 | !/!E,,6 | !/!A,,6 | !/!F,,6 | G,,G,,G,, E,,E,,E,, | %57
 A,,A,,A,, G,,G,,G,, | !/!F,,6 | G,,G,,G,, E,,E,,E,, | F,,F,,F,, E,,E,,E,, | !/!A,,6 | %62
 !/![F,,F,]6 | G,,G,,G,, E,,E,,E,, | F,,F,,F,, E,,E,,E,, | [A,,,A,,] z z z2 z | %66
 z .E,,.A,, .E,,.A,,.E,, | A,, z z z2 z | z .F,,.B,, .F,,.B,,.F,, | B,, z z z2 z | %70
 z .A,,.D, .A,,.D,.A,, | D, z z z2 z | z2 z z2 A,, | !>!B,,3 A,, z A,, | !>!B,,3 A,, z A,, | %75
 B,,3 B,,A,,F,, | ^D,,2 z z2 B,, | E,3 B,, z B,, | E,3 B,, z B,, | G,3- G,E,B,, | G,,3 C,,3 | %81
 ^A,,B,,A,, B,,A,,B,, | ^A,,B,,A,, B,,A,,B,, | ^A,,2 z !>![F,,,F,,]2 !>![F,,,F,,] | %84
 !>!F,,3 !>![F,,,F,,]3 | [B,,,B,,]2 z z2 z | B,,6 | [F,,F,]6 | [^D,,^D,]6 | [B,,,B,,]2 z z2 z | %90
 z6 | z2 z [B,,^D,]3 | E,3 G,,3 | B,,3 z2 z | z6 | z2 z [B,,,B,,]3 | E,,3 =G,,3 | B,,2 z E,,3 | %98
 [B,,,B,,] z z z2 z | z2 z!p! E,,3 | [B,,,B,,] z z z2 z | z6 | z2 z .G,,2 z | .A,,2 z .G,,2 z | %104
 .[C,,C,]2 z .[B,,,B,,]2 z | E,,2 z [^D,,^D,]2 z | [C,,C,]2 z [=C,,=C,]2 z | [B,,,B,,]2 z z2 z | %108
 [B,,,B,,]2 z z2 z |!ped! E,,B,,E,,!ped-up! z z2 |!ped! A,,,E,,A,,!ped-up! z2 z | %111
!ped! B,,,B,,B,,,!ped-up! z2 z |!ped! E,,B,,E,,!ped-up! z2 z |!ped! E,,B,,E,,!ped-up! z2 z | %114
 [C,,C,]2!ped! z z2 z!ped-up! | E,,2!ped! z z2 z!ped-up! | ^D,,2!ped! z z2 z!ped-up! | %117
 F,,2!ped! z z2 z!ped-up! | E,,2!ped! z z2 z!ped-up! | E,,2!ped! z z2 z!ped-up! | %120
 F,,2!ped! z z2 z!ped-up! | F,,2!ped! z z2 z!ped-up! | [B,,,B,,]2!ped! z z2 z!ped-up! | %123
 E,,2!ped! z z2 z!ped-up! | [A,,,A,,]2!ped! z z2 z!ped-up! | B,,,2!ped! z z2 z!ped-up! | %126
 E,,2!ped! z z2 z!ped-up! | E,,2!ped! z z2 z!ped-up! | C,,2!ped! z z2 z!ped-up! | %129
 [E,,E,]2!ped! z z2 z!ped-up! | [^D,,^D,]2!ped! z z2 z!ped-up! | %131
!ped! [A,,,A,,]3- [A,,,A,,]A,,,B,,, | A,,,3- A,,,A,,,B,,, | A,,,3- A,,,A,,,B,,, | %134
 A,,,3- A,,,A,,,B,,, | A,,,B,,,A,,,!ped-up!!ped! B,,,A,,,B,,, | A,,,B,,,A,,, B,,,A,,,B,,, | %137
 A,,,B,,,A,,, B,,,A,,,B,,, | A,,,B,,,A,,, B,,,A,,,B,,,!ped-up! | [G,,,G,,]6 | [A,,,A,,]6 | %141
 C,,2 z z2 z | F,,2 z F,,2 z | G,,2 z A,,2 z | B,,2 z z2 z | B,,,2 z z2 z | E,,2 z z2 z | %147
 [G,,,G,,]6 | [A,,,A,,]6 | [C,,C,]6 | z2 z [F,,,F,,]3 | [G,,,G,,]3 [A,,,A,,]3 | z2 z [F,,,F,,]3 | %153
 [G,,,G,,]3 [A,,,A,,]3 | z6 | z6 | z6 | z6 | G,,6-!ped!!ped-up! | G,,6!ped!!ped-up! | %160
 G,,6-!ped!!ped-up! | G,,6!ped!!ped-up! | G,,6-!ped!!ped-up! | G,,6-!ped!!ped-up! | %164
 G,,2!ped! z G,,3!ped-up! |!ped! A,,3 ^A,,3!ped-up! | B,,6- | B,,2 z4 | [A,,,A,,]6 | [A,,,A,,]6 | %170
 !/![G,,,G,,]6 | !/![G,,,G,,]6 | [A,,,A,,][A,,,A,,][A,,,A,,] [A,,,A,,] z z | %173
 [A,,,A,,][A,,,A,,][A,,,A,,] [A,,,A,,] z z | A,,2 z G,,2 z | F,,2 z B,,B,,A,, | !/![G,,,G,,]6 | %177
 !/![G,,,G,,]6 | [A,,,A,,][A,,,A,,][A,,,A,,] [A,,,A,,] z z | %179
 [A,,,A,,][A,,,A,,][A,,,A,,] [A,,,A,,] z z | A,,2 z G,,2 z | F,,2 z B,,B,,A,, | [E,,G,,]2 z z2 z | %183
 E,6 | B,,6 | G,,6 ||1 E,6 | E,6- | E,6 | [B,,,B,,]2 z z2 z | E,6 | E,6- | E,6 | %193
 [B,,,B,,]2 z z2 z | E,,2 z z2 z | B,,,2 z z2 z | E,,2 z z2 z | B,,,2 z z2 z | E,,6- | [E,,E,]6 | %200
 [E,,E,]6- | [E,,E,]6 | [E,,E,]6- | [E,,E,]6 | E,,6- | E,,6 | E,,2 z z2 z | z6 | %208
 [A,,,A,,]2 z z2 z :|2 E,,2 z z2 z | z6 | z2 z E,,3 || A,,3 =C,3 | E,6- | E,6- | E,3 E,,3 | %216
 A,,3 =C,3 | [D,,D,]3- [D,,D,]2 z | z2 z [A,,,A,,]3 | D,,6 | z2 z [F,,,F,,]3 | [D,,D,]6 | z6 | z6 | %224
 z6 | z6 | .A,, z z .A,, z z | .A,, z z z2 z | z6 | z6 | .C, z z .C, z z | .[A,,E,] z z z2 z | z6 | %233
 z6 | E, z z E,, z z | A,, z z z2 z | B,,2 z{/=C,} .B,,.^A,,.B,, | E,,2 z z2 z | %238
 B,,2 z{/=C,} .B,,.^A,,.B,, | E,,2 z z2 z | =G,,2 z{/_A,,} .G,,.^F,,.G,, | E,,2 z =C,2 z | %242
 B,,2 z B,,=C,D, | =G,,2 z z2 z | A,,2 z{/_B,,} A,,^G,,A,, | ^F,,2 z D,2 z | C,2 z C,D,E, | %247
 A,,2 z z2 z | B,,2 z ^D,,2 z | E,,=C,,=D,, E,,F,,=G,, | A,,2 z F,,2 z | %251
 .^D,,.B,,,.C,, .D,,.E,,.F,, | .E,,.E,,.F,, .=G,, z z | z2 z E,,2 z | =G,,2 z E,,2 z | %255
 B,,2 z E,,2 z |!p! !>!F,,6- | F,,6 |!mp! !>![F,,,F,,]6- | [F,,,F,,]6 | !>!F,,2 G,, ^A,,B,,C, | %261
 D,B,,C, D,E, z |!f! z E,D, C,D,E, | ^A,,C,B,, A,,B,,C, | !>!F,,!>!F,,,G,,, ^A,,,B,,,C,, | %265
 D,,B,,,C,, D,,E,,F,, | =G,,E,,D,, C,,D,,C,, | ^A,,,C,,B,,, A,,,B,,,C,, | B,,,^D,,E,, F,,G,,^A,, | %269
 B,,F,,G,, ^A,,B,,C, |!ped! ^D,6 | [A,,,A,,]6!ped-up! | G,,,B,,,E,, G,,2 z | B,,,E,,G,, B,,2 z | %274
 E,,!f!G,,B,, E,2 z | [E,,E,]2 z [=D,,=D,]2 z | C,,2 D,, E,,F,,G,, | A,,E,,F,, G,,A,,B,, | %278
!ped! C,6 | [A,,,A,,]6!ped-up! | !>!F,,,A,,,D,, !>!F,,2 z | F,,A,,D, F,2 z | z!f! F,=G, A,D,E, | %283
 F,A,,B,, =C,E,,F,, | !/!=G,,6 | !/!=G,,6 | [=G,,,=G,,]2 z z2 z | z2 z =F,,D,,B,,, | %288
 E,,E,,E,, E,,E,,E,, | !/!D,,6 | [^C,,A,,]6 | E,C,A,, =G,,E,,A,, | !/!F,,6 | !/![E,,E,]6 | %294
 !>![^D,,^D,]6 | z ^D,B,, A,,F,,B,, | E,,2 z E,,E,,E,, | E,,2 z E,,2 z | E,,A,,x =C,B,,A,, | %299
 E,,F,,=G,, A,,G,,F,, | E,,2 z E,,E,,E,, | [A,,,A,,]2 z [A,,,A,,]2 z | %302
 [D,,D,]2 z [D,,D,][D,,D,][D,,D,] | [B,,,B,,]F,,=G,, A,,G,,F,, | E,,2 z E,,E,,E,, | E,,2 z E,,2 z | %306
 E,,A,,B,, =C,B,,A,, | E,,F,,=G,, A,,G,,F,, | E,,6 | [=D,,=D,]6 | [^C,,^C,]G,,A,, B,,C,D, | %311
 C,3 B,,3 | A,,2 z [C,,C,] z [C,,C,] | F,,3 A,, z A,, | C,3 G,, z G,, | ^E,,3 C,, z C,, | %316
 A,,3 !>!F,, z !>!F,, | A,,3 !>!F,, z !>!F,, | C,,2 z{/D,,} C,,^B,,,C,, | C,3 B,,3 | %320
 A,,3 !>!F,, z !>!F,, | A,,3 !>!F,, z !>!F,, | C,,2 z{/D,,} C,,^B,,,C,, | C,3 B,,3 | %324
 ^A,,3 !>!F,, z !>!F,, | ^A,,3 !>!F,, z !>!F,, | [C,,C,]3- [C,,C,] z [C,,C,] | %327
 [C,,C,]3- [C,,C,] z [C,,C,] | [C,,C,]3- [C,,C,] z [C,,C,] | [C,,C,]3- [C,,C,] z [C,,C,] | %330
 [C,,C,]2 z z2 C,, | C,,6 | z2 z z2 C,, | C,,6 | z2 z z2 C,, | C,,6 | z2 z z2 C,, | C,,6 | %338
 z2 z z2 C,, | C,,6 | z2 z z2 C,, | C,,6 | z2 z z2 C,, | C,,6 | z2 z z2 [C,,C,] | [C,,C,]6 | %346
 z2 z z2 [C,,C,] | [C,,C,]6 | z2 z z2 [B,,,B,,] | [B,,,B,,]6 | z2 z z2 [A,,,A,,] | [A,,,A,,]6 | %352
 z2 z [=G,,,=G,,]3 | !>![F,,,F,,]3 [E,,,E,,]3 | [D,,,D,,]3 !>![F,,,F,,]3 | %355
 [=G,,,=G,,]3 [^G,,,^G,,]3 | [A,,,A,,]2 z !>![F,,,F,,]3 | [=G,,,=G,,]3 [^G,,,^G,,]3 | %358
 !>![F,,,F,,]2 z !>![F,,,F,,]3 | [B,,,B,,]3 [^B,,,^B,,]3 | [C,,C,]2 z [A,,,A,,]3 | %361
 [B,,,B,,]3 [^B,,,^B,,]3 | [C,,C,]2 z C,,3 | !>!F,,3 ^E,,3 | !>!F,,2 z C,,3 | !>!F,,3 ^E,,3 | %366
!ped! !>!F,,2 z4!ped-up! |!ped! z6!ped-up! | !/!E,6 | !/!E,6 | !/!E,6 | !/!E,6 | !/!A,6 | !/!F,6 | %374
 G,G,G, E,E,E, | A,,2 z G,,2 z | !>![F,,F,]!>![F,,F,]!>![F,,F,] [E,,E,][E,,E,][E,,E,] | %377
 [D,,D,] z z z2 z | !>![F,,F,]!>![F,,F,]!>![F,,F,] [E,,E,][E,,E,][E,,E,] | [^D,,^D,] z z z2 z | %380
 [E,,E,][E,,E,][E,,E,] [^E,,^E,][E,,E,][E,,E,] | %381
 !>![F,,F,]!>![F,,F,]!>![F,,F,] [G,,G,][G,,G,][G,,G,] | [A,,A,] z z C, z z | D, z z B,, z z | %384
 E,E,E, E, z z | E,E,E, E, z z | !>!F,,2 z !>!F,,!>!F,,!>!F,, | %387
 [B,,,B,,] z z [B,,,B,,][B,,,B,,][B,,,B,,] | E,, z z!ped! ^E,,E,,E,,!ped-up! | %389
!ped! !>!F,,!>!F,,!>!F,, G,,G,,G,,!ped-up! | A,, z z C, z z | D, z z B,, z z | E, z z E, z z | %393
 E, z z E, z z | F, z z F, z z | F, z z F, z z | G, z z A, z z | G, z z A, z z | %398
 G, z z [A,,F,] z z | [G,,E,] z z [A,,F,] z z | [G,,E,]6- | [G,,E,]3- [G,,E,]2 z | z6 | z6 | %404
 A,, z z z2 z | D,, z z z2 z | E,, z z z2 z | A,, z z z2 z | A,, z z z2 z | F,, z z z2 z | %410
 A,, z z z2 z | G,, z z z2 z | F,, z z E,, z z | A,, z z z2 z | A,,, z z z2 z | B,,, z z z2 z | %416
 B,,, z z z2 z | E,, z z z2 z |!ped! [A,,,A,,] z z!ped-up!!ped! z2 z!ped-up! | %419
!ped! [D,,D,] z z!ped-up!!ped! z2 z!ped-up! |!ped! [E,,E,] z z!ped-up!!ped! z2 z!ped-up! | %421
!ped! A,, z z!ped-up!!ped! z2 z!ped-up! |!ped! A,, z z!ped-up!!ped! z2 z!ped-up! | %423
!ped! !>!F,, z z!ped-up!!ped! z2 z!ped-up! |!ped! B,, z z!ped-up!!ped! z2 z!ped-up! | %425
!ped! G,, z z!ped-up!!ped! z2 z!ped-up! |!ped! D,,3 D,,2 D,,!ped-up! |!ped! D,,3 D,,2 D,,!ped-up! | %428
!ped! D,,3 D,,2 D,,!ped-up! |!ped! D,,3 z2 z!ped-up! |!ped! D,,3 D,,2 D,,!ped-up! | %431
!ped! D,,3 D,,2 D,,!ped-up! |!ped! D,,3 D,,2 D,,!ped-up! |!ped! D,,3 z2 z!ped-up! | %434
!ped! [C,,A,,-]6!ped-up! |!ped! [D,,A,,]2 z z2 z!ped-up! | !>!F,,6 | [B,,,B,,]6 | %438
 [C,,C,]3 [D,,D,]3 | [E,,E,]2 z z2 z | [E,,E,]2 z z2 z | [A,,,A,,]2 z z2 z | [C,,C,]6 | [D,,D,]6 | %444
 !>!F,,6 | B,,2 z B,,,3 | C,,3 D,,3 | z2 z B,,,3 | C,,3 D,,3 | z6 | z6 | z6 | z6 | z2 z G,3 | %454
 B,3 =A,3 |!mp! E,6- | E,6 | E,6- | E,6 | E,6 | D,6 | D,3 z2 z | E,,E,^D, =D,=C,B,, | %463
 A,, z z z2 z | A,, z z [A,,E,] z z | [E,,E,] z z E,E,E, | E, z z z2 z | A,, z z A,,A,,A,, | %468
 D, z z [D,A,] z2 | =G,,A,=G, =F,E,D, | =C,D,C, _B,,A,,=G,, | =F,6 | =F,6 | %473
 =F, z z [F,A,][F,A,][F,A,] | [=F,A,] z z z2 z | E,, z z E,,E,,E,, | E,, z z E,, z z | %477
 E,, z z E,,E,,E,, | E,, z z z2 z | [E,,E,] z z [E,,E,][E,,E,][E,,E,] | [E,,E,] z z [E,,E,] z z | %481
 [E,,E,] z z [E,,E,][E,,E,][E,,E,] | [E,,E,]3 [D,,D,]3 |!ped! [C,,C,]3- [C,,C,][C,,C,][C,,C,] | %484
 [C,,C,] z z [C,,C,] z z!ped-up! |!ped! [G,,,G,,]3 [B,,,B,,]3 | E,,3 [D,,D,]3!ped-up! | %487
 !/![C,,C,]6 | !/![C,,C,]6 |!ped! D,,F,,B,, D, z z | D,,F,,B,, D, z z!ped-up! | %491
!ped! E,,=G,,C, E, z z | E,,=G,,C, E, z z!ped-up! | [F,,F,]2 z [=G,,=G,]2 z | %494
 !>![F,,F,]2 z [E,,E,]2 z | [D,,D,]2 z [=G,,,=G,,]2 z | !>![F,,,F,,]2 z [E,,,E,,]2 z | %497
 [D,,,D,,]2 z z2 z | z6 | D,,2 z D,,D,,D,, | D,2 z C,2 z | B,,2 z z2 z | z6 | %503
 [B,,,B,,]2 z [B,,,B,,][B,,,B,,][B,,,B,,] | B,,2 z A,,2 z | z6 | z2 z z2 G,, | G,,3 A,, z G,, | %508
 G,,3 A,, z G,, | G,,2 z z2 z | z6 | z6 | z2 z G,,2 z | A,,2 z [B,,E,]2 z | [C,E,]2 z D,2 z | %515
 E,2 z [A,,A,]2 z | [G,,G,]2 z E,,2 z | A,,2 z B,,2 z | C,2 z ^D,2 z | E,2 z!mp! A,,2 z | %520
 G,,2 z =G,,2 z | !>!F,,2 z !>!F,,,2 z | A,,,2 z B,,2 z | ^E,,2 z ^E,,,2 z | %524
 !>!F,,,2 z [D,,D,]2 z | E,,2 z E,2 z | E,2 z E,,2 z | F,,2 z"_cresc." [^A,,,^A,,]2 z | %528
 [B,,,B,,]2 z ^D,,2 z | ^E,,2 z E,,2 z | F,,2 z D,,2 z | =E,,2 z E,2 z | E,,2 z z2 E,, | %533
!f! !>!E,3 E,, z E,, | !>!E,3 E,, z E,, |"_cresc." E,6- | E,2 z z2 E,, | !>!D,3 E,, z E,, | %538
 !>!D,3 E,, z E,, | D,6- | D,2 z z2 E,, | !>!C,3 E,, z E,, | !>!C,3 E,, z E,, | %543
!ff! !>!=C,3"^cresc.""_cresc." E,, z E,, | !>!=C,3 E,, z E,, |!ff! B,,6 | B,,6 | %547
 [B,,^D,F,]3 [B,,D,F,]3 | [B,,^D,F,]3 [B,,D,F,]3 | G,,3 !>!^E,,3 | !>!F,,3 !>![D,,D,]3 | %551
 [E,,E,]3 z2 z | [E,,E,]2 z2 z z | [A,,,A,,]2 z4 | z6 | E,,A,,C, z z2 | E,,2 z z2 z | A,,6- | %558
 A,,6 | E,,A,,C, z z2 | [E,,E,]2 z z2 z | A,,C,E, z z2 | E,6- | E,3 E,3- | E,6 | %565
 [E,,E,][E,,E,][E,,E,] [E,,E,][E,,E,][E,,E,] | [E,,E,][E,,E,][E,,E,] [E,,E,][E,,E,][E,,E,] | %567
 [E,,E,]2 z [E,,E,][E,,E,][E,,E,] | [E,,E,]3 [E,,E,]3 | !/![A,,,A,,]6 | !/![A,,,A,,]6 | %571
 !/![A,,,A,,]6 | !/![A,,,A,,]6 | !/![A,,,A,,]6 | !/![A,,,A,,]6 | [A,,,A,,]2 z z2 z |!ped! z6 | %577
 z2 z!ped-up! E,,2 z | A,,2 z E,,2 z | A,,2 z E,,2 z | A,,2 z E,,2 z | A,,2 z [A,,,A,,]2 z | %582
 [A,,,A,,]2 z [A,,,A,,]2 z | A,,2 z z2 z | A,,2 z z2 z | [A,,,A,,]2 z !fermata!z2 z |] %586
V:7
 x6 | x6 | x6 |: x6 | x6 | x6 | x6 | x6 | x6 | x6 | x6 | x6 | x6 | x6 |[K:treble] x6 | x6 | %16
[K:bass] x6 | x6 | x6 | x6 | x6 | x6 | x6 | x6 | x6 | x6 | x6 | x6 | x6 | x6 | x6 | x6 | x6 | x6 | %34
 x6 | x6 | x6 | x6 | x6 | x6 | x6 | x6 | x6 | x6 | x6 | x6 | x6 | x6 | x6 | x6 | x6 | x6 | x6 | %53
 x6 | x6 | x6 | x6 | x6 | x6 | x6 | x6 | x6 |[K:treble] x6 |[K:bass] x6 | x6 | x6 | x6 | x6 | x6 | %69
 x6 | x[K:treble] x5 | x6 | x6 | x6 | x6 | x4[K:bass] x2 | x5[K:treble] x | x6 | x6 | x6 | %80
[K:bass] x6 |[K:treble] x6 | x6 | x3[K:bass] x3 | x6 | x6 | x6 | x6 | x6 | x3[K:treble] x3 | x6 | %91
 x3[K:bass] x3 | x6 | x6 | x6 | x6 | x6 | x6 | x6 | x6 | x6 | x6 | x6 |[K:treble] x6 | x6 | x6 | %106
 x6 | x6 | x6 |[K:bass] x3 [G,B,]E,C | x3 A,E,A, | x3 E,B,,F, | x6 | x3 G,E,[F,^A,E] | %114
 z ^A,F, CA,F, | z F,C, ^A,F,C, | x6 | x6 | x6 | x6 | x6 | x6 | x6 | x6 | x6 | x6 | x6 | x6 | x6 | %129
 x6 | x6 | x6 | x6 | x6 | x6 | x6 | x6 | x6 | x6 | x6 | x6 | x6 | x6 | x6 | x6 | x6 | x6 | x6 | %148
 x6 | x6 | x6 | x6 | x6 | x6 | x6 | x6 | x6 | x6 |[K:treble] G,6- | G,6 | G,6- | G,6 | G,6- | G,6 | %164
 G,6 | x6 | x6 | x6 | x6 | x6 |[K:bass] x6 | x6 | x6 | x6 | x6 | x6 | x6 | x6 | x6 | x6 | x6 | x6 | %182
 x6 | x6 | x6 | x6 ||1 x6 | x6 | x6 | x6 | x6 | x6 | x6 | x6 | x6 | x6 | x6 | x6 | x6 | %199
[K:treble] x6 | x6 | x6 | x6 | x6 |[K:bass] x6 | x6 | x6 | x6 | x6 :|2 [E,E]6- | x6 | x6 || %212
 [E,A,]6 | [G,B,]3 z2 z | x6 | x6 | x6 | x6 | x6 | x6 | x6 | x6 | x6 | x6 | x6 | x6 | x6 | x6 | %228
 x6 | x6 | x6 | x6 |[K:treble] x6 | x6 | x6 | x6 |[K:bass] x6 | x6 | x6 | x6 | x[K:treble] x5 | %241
 x6 | x6 | x6 | x6 | x6 | x6 |[K:bass] x6 | x6 | x6 | x6 | x6 | x6 | x6 | x6 | x6 | x6 | x6 | x6 | %259
 x6 | x6 | x6 | x6 | x6 | x6 | x6 | x6 | x6 | x6 | x6 | x6 | x6 | x6 | x6 | x6 | x6 | x6 | x6 | %278
 x6 | x6 | x6 | x6 | x6 | x6 | x6 | x6 | x3[K:treble] x3 | x3[K:bass] x3 | x6 | x6 | x6 | x6 | x6 | %293
 x6 | x6 | x6 | x6 | x6 | x6 | x6 | x6 | x6 | x6 | x6 | x6 | x6 | x6 | x6 | x6 | x6 | x6 | x6 | %312
 x6 | x6 | x6 | x6 | x6 | x6 | x6 | x6 | x6 | x6 | x6 | x6 | x6 | x6 | x6 | x6 | x6 | x6 | x6 | %331
 x6 | x6 | x6 | x6 | x6 | x6 | x6 | x6 | x6 | x6 | x6 | x6 | x6 | x6 | x6 | x6 | x6 | x6 | x6 | %350
 x6 | x6 | x6 | x6 | x6 | x6 | x6 | x6 | x[K:treble] x5 | x6 | x6 | x6 | x3[K:bass] x3 | x6 | x6 | %365
 x6 | x6 | x6 | x6 | x6 | x6 | x6 | x6 | x6 | x6 | x6 | x6 | x6 | x6 | x6 | x6 | x6 | x6 | x6 | %384
 x6 | x6 | x6 | x6 | x6 | x6 | x6 | x6 | x6 | x6 | x6 | x6 | x3[K:treble] x3 | x6 | x6 | x6 | x6 | %401
 x6 | x6 | x6 | x6 | x6 | x6 | x6 | x6 | x6 | x6 | x6 | B,6 | x6 | x6 |[K:bass] [G,B,]6 | %416
 [F,^D]3 [A,F]3 | x6 | x6 | x6 | x6 | x6 | x6 | x6 | x6 | x6 | x6 | x6 | x6 | x6 | x6 | x6 | x6 | %433
 x6 | x6 | x6 | x6 | x6 | x6 | x6 | G,3 G,3 | x6 | x6 | x6 | x6 | x6 | x6 | x6 | x6 | x6 | x6 | %451
 x6 | x6 | x6 | x6 | x6 | x6 | x6 | x6 | x6 | x6 | x6 | x6 | x6 | x6 | x6 | x6 | x6 | %468
 x[K:treble] x5 | x6 | x6 | x6 | x6 | x6 | x6 |[K:bass] x6 | x6 | x6 | x6 | x6 | x6 | x6 | x6 | %483
 x6 | x6 | x6 | x6 | x6 | x6 | x6 | x6 | x6 | x6 | x6 | x6 | x6 | x6 | x6 | x6 | x6 | x6 | x6 | %502
 x6 | x6 | x6 | x6 | x6 | x6 | x6 | x6 | x6 | x6 | x6 | x6 | x6 | x6 | x6 | x6 | x3[K:treble] x3 | %519
 x6 | x[K:bass] x5 | x6 | x6 | x6 | x6 | x6 | x6 | x6 | x6 | x6 | x6 | x6 | x6 | x6 | x6 | x6 | %536
 x6 | x6 | x6 | x6 | x6 | x6 | x6 | x6 | x6 |[K:treble] x6 | x6 | x6 | x6 | x6 |[K:bass] x6 | x6 | %552
 x6 | x6 | x6 | x6 | x6 | x6 | x6 | x6 | x6 | x6 |[K:treble] x6 | x6 |[K:bass] x6 | x6 | x6 | x6 | %568
 x6 | x6 | x6 | x6 | x6 | x6 | x6 | x6 | x6 | x6 | x6 | x6 | x6 | x6 | x6 | x6 | x6 | x6 |] %586
V:8
 x6 | x6 | x6 |: x6 | x6 | x6 | x6 | x6 | x6 | x6 | x6 | x6 | x6 | x6 | x6 | x6 | x6 | x6 | x6 | %19
 x6 | x6 | x6 | x6 | x6 | x6 | x6 | x6 | x6 | x6 | x6 | x6 | x6 | x6 | x6 | x6 | x6 | x6 | x6 | %38
 x6 | x6 | x6 | x6 | x6 | x6 | x6 | x6 | x6 | x6 | x6 | x6 | x6 | x6 | x6 | x6 | x6 | x6 | x6 | %57
 x6 | x6 | x6 | x6 | x6 | x6 | x6 | x6 | x6 | x6 | x6 | x6 | x6 | x6 | x6 | x6 | x6 | x6 | x6 | %76
 x6 | x6 | x6 | x6 | x6 | x6 | x6 | x6 | x6 | x6 | x6 | x6 | x6 | x6 | x6 | x6 | x6 | x6 | x6 | %95
 x6 | x6 | x6 | x6 | x6 | x6 | x6 | x6 | x6 | x6 | x6 | x6 | x6 | x6 | x6 | x6 | x6 | x6 | x6 | %114
 x6 | x6 | x6 | x6 | x6 | x6 | x6 | x6 | x6 | x6 | x6 | x6 | x6 | x6 | x6 | x6 | x6 | x6 | x6 | %133
 x6 | x6 | x6 | x6 | x6 | x6 | x6 | x6 | x6 | x6 | x6 | x6 | x6 | x6 | x6 | x6 | x6 | x6 | x6 | %152
 x6 | x6 | x6 | x6 | x6 | x6 | x6 | x6 | x6 | x6 | C,,2 z z2 z | x6 | G,,,2 z z2 z | C,,2 z z2 z | %166
 x6 | x6 | x6 | x6 | x6 | x6 | x6 | x6 | x6 | x6 | x6 | x6 | x6 | x6 | x6 | x6 | x6 | x6 | x6 | %185
 x6 ||1 E,,2 z z2 z | x6 | x6 | x6 | E,,2 z z2 z | x6 | x6 | x6 | x6 | x6 | x6 | x6 | x6 | x6 | %200
 x6 | x6 | x6 | x6 | x6 | x6 | x6 | x6 | x6 :|2 x6 | x6 | x6 || x6 | x6 | x6 | x6 | x6 | x6 | x6 | %219
 x6 | x6 | x6 | x6 | x6 | x6 | x6 | x6 | x6 | x6 | x6 | x6 | x6 | x6 | x6 | x6 | x6 | x6 | x6 | %238
 x6 | x6 | x6 | x6 | x6 | x6 | x6 | x6 | x6 | x6 | x6 | x6 | x6 | x6 | x6 | x6 | x6 | x6 | x6 | %257
 x6 | x6 | x6 | !>!F,,6- | F,,6 | !>!F,,6- | F,,6 | x6 | x6 | x6 | x6 | x6 | x6 | x6 | x6 | x6 | %273
 x6 | x6 | x6 | x6 | x6 | x6 | x6 | x6 | x6 | x6 | x6 | x6 | x6 | x6 | x6 | x6 | x6 | x6 | x6 | %292
 x6 | x6 | x6 | x6 | x6 | x6 | x6 | x6 | x6 | x6 | x6 | x6 | x6 | x6 | x6 | x6 | x6 | x6 | x6 | %311
 x6 | x6 | x6 | x6 | x6 | x6 | x6 | x6 | x6 | x6 | x6 | x6 | x6 | x6 | x6 | x6 | x6 | x6 | x6 | %330
 x6 | x6 | x6 | x6 | x6 | x6 | x6 | x6 | x6 | x6 | x6 | x6 | x6 | x6 | x6 | x6 | x6 | x6 | x6 | %349
 x6 | x6 | x6 | x6 | x6 | x6 | x6 | x6 | x6 | x6 | x6 | x6 | x6 | x6 | x6 | x6 | x6 | x6 | x6 | %368
 x6 | x6 | x6 | x6 | x6 | x6 | x6 | x6 | x6 | x6 | x6 | x6 | x6 | x6 | x6 | x6 | x6 | x6 | x6 | %387
 x6 | x6 | x6 | x6 | x6 | x6 | x6 | x6 | x6 | x6 | x6 | x6 | x6 | x6 | x6 | x6 | x6 | x6 | x6 | %406
 x6 | x6 | x6 | x6 | x6 | x6 | x6 | x6 | x6 | x6 | x6 | x6 | x6 | x6 | x6 | x6 | x6 | x6 | x6 | %425
 x6 | x6 | x6 | x6 | x6 | x6 | x6 | x6 | x6 | x6 | x6 | x6 | x6 | x6 | x6 | x6 | x6 | x6 | x6 | %444
 x6 | x6 | x6 | x6 | x6 | x6 | x6 | x6 | x6 | x6 | x6 | x6 | x6 | x6 | x6 | A,, z z A,,A,,A,, | %460
 D, z z z2 z | =G,, z z G,,G,,G,, | x6 | x6 | x6 | x6 | x6 | x6 | x6 | x6 | x6 | x6 | x6 | x6 | %474
 x6 | x6 | x6 | x6 | x6 | x6 | x6 | x6 | x6 | x6 | x6 | x6 | x6 | x6 | x6 | x6 | x6 | x6 | x6 | %493
 x6 | x6 | x6 | x6 | x6 | x6 | x6 | x6 | x6 | x6 | x6 | x6 | x6 | x6 | x6 | x6 | x6 | x6 | x6 | %512
 x6 | x6 | x6 | x6 | x6 | x6 | x6 | x6 | x6 | x6 | x6 | x6 | x6 | x6 | x6 | x6 | x6 | x6 | x6 | %531
 x6 | x6 | x6 | x6 | x6 | x6 | x6 | x6 | x6 | x6 | x6 | x6 | x6 | x6 | x6 | x6 | x6 | x6 | x6 | %550
 x6 | x6 | x6 | x6 | x6 | x6 | x6 | A,,,2 z z2 z | x6 | x6 | x6 | x6 | E,,2 z z2 z | %563
 E,,A,,C, z x2 | E,,2 z z2 z | x6 | x6 | x6 | x6 | x6 | x6 | x6 | x6 | x6 | x6 | x6 | x6 | x6 | %578
 x6 | x6 | x6 | x6 | x6 | x6 | x6 | x6 |] %586

